!!!!SEGMENT: pl-sa--115-a-iii-15_anonim-quam-toto-pc0.krn
!!!id: 17xx:1715
!!!COM: Anonim
!!!OTL: Quam toto
!!!PDT: 1773
!!!SMS-siglum: PL-SA
!!!SMS-shelfmark: 115/A III 15
!!!NIFC-rismID: 1001030095
!!!URL-scan: http://bc.bdsandomierz.pl/dlibra/publication/1471/edition/1439/content
!!!ONB-nifc:
!!!SMS-variant:
!!!SMS-altvar:
**kern	**kern	**kern	**kern	**text	**kern	**text	**kern	**text	**kern
*part7	*part6	*part5	*part4	*part4	*part3	*part3	*part2	*part2	*part1
*staff7	*staff6	*staff5	*staff4	*staff4	*staff3	*staff3	*staff2	*staff2	*staff1
*I"Fundamento	*I"Violin 2do	*I"Violino Imo	*I"Baſso	*	*I"Canto 2do.	*	*I"Canto Solo vel 1mo.	*	*I"Hobois Solo aut flautravers v Violin 3rio
*I'bc	*I'vl 2	*I'vl 1	*I'B	*	*I'S 2	*	*I'S 1	*	*I'ob
*clefF4	*clefG2	*clefG2	*clefF4	*	*clefC1	*	*clefC1	*	*clefG2
*k[e-bn]	*k[e-bn]	*k[e-bn]	*k[e-bn]	*	*k[bne-]	*	*k[e-b-cn]	*	*k[e-cn]
*M4/4	*M4/4	*M4/4	*M4/4	*	*M4/4	*	*M4/4	*	*M4/4
*met(C.)	*met(C.)	*met(C.)	*met(C.)	*	*met(C.)	*	*met(C.)	*	*met(c)
=1	=1	=1	=1	=1	=1	=1	=1	=1	=1
!LO:TX:t=P:problem:mixed beam	!	!	!	!	!	!	!LO:TX:t=P:problem:przy kluczu bemol e- na wysokości ee	!	!LO:TX:t=P:problem:all\right
!LO:TX:t=Lentiſsime	!LO:TX:t=Lentiſsime	!LO:TX:t=Lentiſsime.	!LO:TX:t=Lentiſsime	!	!LO:TX:t=Lentiſsime	!	!	!	!LO:TX:t=Lentiſsime
!LO:TX:a:t=P:problem:oznaczenie metrum (C.) nie wyświetla się	!LO:TX:a:t=P:problem:oznaczenie metrum (C.) nie wyświetla się	!LO:TX:a:t=P:problem:oznaczenie metrum (C.) nie wyświetla się	!LO:TX:a:t=P:problem:oznaczenie metrum (C.) nie wyświetla się	!	!LO:TX:a:t=P:problem:oznaczenie metrum (C.) nie wyświetla się	!	!LO:TX:a:t=P:problem:oznaczenie metrum (C.) nie wyświetla się	!	!LO:TX:a:t=P:problem:w nazwie instrumentu "v Violin 3rio" dopisane inną ręką
8C\L	8c/L	8c/L	00r	.	00r	.	00r	.	8cc\L
8F\	8f/	8f/	.	.	.	.	.	.	16dd\L
.	.	.	.	.	.	.	.	.	16ee-\JJ
8G\	8g/	8g/	.	.	.	.	.	.	8dd\L
8GG/J	8G/J	8G/J	.	.	.	.	.	.	16cc\L
.	.	.	.	.	.	.	.	.	16bn\JJ
8C\L	8c/L	8c/L	.	.	.	.	.	.	4cc\
16G\L	16g/L	16g/L	.	.	.	.	.	.	.
!	!LO:SIC:s=16a-/JJ	!	!	!	!	!	!	!	!
16A-X\JJ	16a/JJ	16a-X/JJ	.	.	.	.	.	.	.
16G\LL	16g/LL	16g/LL	.	.	.	.	.	.	4r
16F\	16f/	16f/	.	.	.	.	.	.	.
16E-\	16e-/	16e-/	.	.	.	.	.	.	.
16D\JJ	16d/JJ	16d/JJ	.	.	.	.	.	.	.
=2	=2	=2	=2	=2	=2	=2	=2	=2	=2
!LO:TX:t=P:problem:mixed beam	!	!	!	!	!	!	!	!	!
8E-\L	8e-/L	8e-/L	.	.	.	.	.	.	8ee-\L
8A-X\	8a-X/	8a-X/	.	.	.	.	.	.	16ff\L
.	.	.	.	.	.	.	.	.	16gg\JJ
!LO:SIC:s=8B-\:v	!LO:SIC:s=8b-/:v	!LO:SIC:s=8b-/:v	!	!	!	!	!	!	!
8B\	8b/	8b/	.	.	.	.	.	.	8ff\L
!LO:SIC:s=8BB-/J:v	!LO:SIC:s=8B-/J:v	!LO:SIC:s=8B-/J:v	!	!	!	!	!	!	!
8BB/J	8B/J	8B/J	.	.	.	.	.	.	16ee-\L
.	.	.	.	.	.	.	.	.	16dd\JJ
8E-\L	8e-/L	8e-/L	.	.	.	.	.	.	4ee-\
16E-\L	16e-/L	16e-/L	.	.	.	.	.	.	.
16F\JJ	16f/JJ	16f/JJ	.	.	.	.	.	.	.
16E-\LL	16e-/LL	16e-/LL	.	.	.	.	.	.	4r
16D\	16d/	16d/	.	.	.	.	.	.	.
16C\	16c/	16c/	.	.	.	.	.	.	.
16BBn\JJ	16Bn/JJ	16Bn/JJ	.	.	.	.	.	.	.
=3	=3	=3	=3	=3	=3	=3	=3	=3	=3
8C/L	8c/L	8c/L	.	.	.	.	.	.	16cc\LL
.	.	.	.	.	.	.	.	.	16g\J
!	!	!	!	!	!	!	!	!	!LO:TX:t=P:problem:niepewna interpretacja ozdobnika, dotyczy każdego przypadku w ob
8r	8rg	8rb	.	.	.	.	.	.	8gM\J
8C/J	8c/J	8c/J	.	.	.	.	.	.	16cc\LL
.	.	.	.	.	.	.	.	.	16g\J
8r	8r	8r	.	.	.	.	.	.	8gM\J
8G\L	8Bn/L	8Bn/L	.	.	.	.	.	.	16dd\LL
.	.	.	.	.	.	.	.	.	16g\J
8r	8rg	8rg	.	.	.	.	.	.	8gM\J
8G\J	8B/J	8B/J	.	.	.	.	.	.	16dd\LL
.	.	.	.	.	.	.	.	.	16g\J
8r	8r	8r	.	.	.	.	.	.	8gM\J
=4	=4	=4	=4	=4	=4	=4	=4	=4	=4
8C/L	8c/L	8c/L	.	.	.	.	.	.	8ee-\L
8C/	8c/	8e-/	.	.	.	.	.	.	16gg\L
.	.	.	.	.	.	.	.	.	16aa-X\JJ
8C/	8c/	8e-/	.	.	.	.	.	.	8gg\L
8C/J	8c/J	8e-/J	.	.	.	.	.	.	16ff\L
.	.	.	.	.	.	.	.	.	16ee-\JJ
!LO:LB:g=original	!	!	!	!	!	!	!	!	!
!LO:TX:t=P:problem:mixed beam	!	!	!	!	!	!	!	!	!
8G\L	8Bn/L	8d/L	.	.	.	.	.	.	8dd\L
8GG/	8B/	8d/	.	.	.	.	.	.	16ff\L
.	.	.	.	.	.	.	.	.	16gg\JJ
8GG/	8B/	8d/	.	.	.	.	.	.	8ff\L
8GG/J	8B/J	8d/J	.	.	.	.	.	.	16ee-\L
!	!	!	!	!	!	!	!	!	!LO:TX:t=P:problem:brak kreski taktowej
!	!	!	!	!	!	!	!	!	!LO:TX:t=d
.	.	.	.	.	.	.	.	.	16dd\JJ
!	!LO:LB:g=original	!LO:LB:g=original	!	!	!	!	!	!	!
=5	=5	=5	=5	=5	=5	=5	=5	=5	=5-
8c\L	8cc/L	8cc/L	00r	.	00r	.	00r	.	4cc\
8G\J	8g/J	8g/J	.	.	.	.	.	.	.
8G\L	8g/L	8g/L	.	.	.	.	.	.	4r
16An\L	16an/L	16an/L	.	.	.	.	.	.	.
16B\JJ	16bn/JJ	16bn/JJ	.	.	.	.	.	.	.
8c\L	8cc/L	8cc/L	.	.	.	.	.	.	2r
8G\J	8g/J	8g/J	.	.	.	.	.	.	.
8G\L	8g/L	8g/L	.	.	.	.	.	.	.
16An\L	16an/L	16an/L	.	.	.	.	.	.	.
16Bn\JJ	16bn/JJ	16bn/JJ	.	.	.	.	.	.	.
=6	=6	=6	=6	=6	=6	=6	=6	=6	=6
!LO:TX:t=P:problem:mixed beam	!LO:TX:t=P:problem:mixed beam	!LO:TX:t=P:problem:mixed beam	!	!	!	!	!	!	!
8c\L	8cc\L	8cc\L	.	.	.	.	.	.	8ee-\L
!	!LO:TX:a:t=P:problem:pod trzema ósemkami 8e-/ dopisane trzy małe główki ósemek 8c/	!	!	!	!	!	!	!	!
8C/	8e-/	8e-/	.	.	.	.	.	.	16gg\L
.	.	.	.	.	.	.	.	.	16aa-X\JJ
!	!	!	!	!	!	!	!	!	!LO:LB:g=original
8C/	8e-/	8e-/	.	.	.	.	.	.	8gg\L
8C/J	8e-/J	8e-/J	.	.	.	.	.	.	16ff\L
.	.	.	.	.	.	.	.	.	16ee-\JJ
!LO:SIC:s=8BBn/L:v	!	!	!	!	!	!	!	!	!
8BB-X/L	8Bn/L	8d/L	.	.	.	.	.	.	8dd\L
!LO:SIC:s=8BBn/:v	!	!	!	!	!	!	!	!	!
!	!	!	!	!	!	!	!	!	!LO:TX:a:t=P:problem:ta i kolejna nuta zapisane niejednoznacznie, być może 16gg\L i 16aa\JJ
8BB-/	8B/	8d/	.	.	.	.	.	.	16ff\L
.	.	.	.	.	.	.	.	.	16gg\JJ
!LO:SIC:s=8BBn/:v	!	!	!	!	!	!	!	!	!
8BB-/	8B/	8d/	.	.	.	.	.	.	8ff\L
!LO:SIC:s=8BBn/J:v	!	!	!	!	!	!	!	!	!
8BB-/J	8B/J	8d/J	.	.	.	.	.	.	16ee-\L
.	.	.	.	.	.	.	.	.	16dd\JJ
=7	=7	=7	=7	=7	=7	=7	=7	=7	=7
!LO:TX:t=P:problem:mixed beam	!	!	!	!	!	!	!	!	!
8C/L	8c/L	8c/L	.	.	.	.	.	.	8cc\L
8C/	8c/	8c/	.	.	.	.	.	.	16ee-\L
.	.	.	.	.	.	.	.	.	16ff\JJ
8A-X\	8a-X/	8a-X/	.	.	.	.	.	.	8ee-\L
8A-\J	8a-/J	8a-/J	.	.	.	.	.	.	16dd\L
.	.	.	.	.	.	.	.	.	16cc\JJ
8G\L	8g/L	8g/L	.	.	.	.	.	.	16bn\LL
.	.	.	.	.	.	.	.	.	16cc\
8An\	8an/	8an/	.	.	.	.	.	.	16dd\
.	.	.	.	.	.	.	.	.	16b\JJ
8Bn\	8bn/	8bn/	.	.	.	.	.	.	4g/
8G\J	8g/J	8g/J	.	.	.	.	.	.	.
=8	=8	=8	=8	=8	=8	=8	=8	=8	=8
8G\L	16r	16r	.	.	.	.	.	.	8g\L
.	16d/KL	16b\KL	.	.	.	.	.	.	.
8G\	8dt/J	8bt\J	.	.	.	.	.	.	16bn\L
.	.	.	.	.	.	.	.	.	16cc\JJ
8G\	16r	16r	.	.	.	.	.	.	16dd\LL
.	16d/KL	16b\KL	.	.	.	.	.	.	16g\J
8G\J	8dt/J	8bt\J	.	.	.	.	.	.	8gM\J
8G\L	16r	16r	.	.	.	.	.	.	8g\L
.	16e-/KL	16cc\KL	.	.	.	.	.	.	.
8G\	8e-T/J	8ccT\J	.	.	.	.	.	.	16cc\L
.	.	.	.	.	.	.	.	.	16dd\JJ
8G\	16r	16r	.	.	.	.	.	.	16ee-\LL
.	16e-/KL	16cc\KL	.	.	.	.	.	.	16g\J
8G\J	8e-T/J	8ccT\J	.	.	.	.	.	.	8gW\J
!LO:LB:g=original	!LO:LB:g=original	!LO:LB:g=original	!	!	!	!	!	!	!
=9	=9	=9	=9	=9	=9	=9	=9	=9	=9
8G\L	16r	16r	00r	.	00r	.	00r	.	8g\L
.	16f/KL	16dd\KL	.	.	.	.	.	.	.
8G\	8fT/J	8ddt\J	.	.	.	.	.	.	16ee-\L
.	.	.	.	.	.	.	.	.	16ee-\JJ
8G\	16r	16r	.	.	.	.	.	.	16ff\LL
.	16f/KL	16dd\KL	.	.	.	.	.	.	16g\J
8G\J	8fT/J	8ddt\J	.	.	.	.	.	.	8gM\J
2r	2r	2r	.	.	.	.	.	.	4.aa-X\
.	.	.	.	.	.	.	.	.	8gg\
=10	=10	=10	=10	=10	=10	=10	=10	=10	=10
2r	2r	2r	.	.	.	.	.	.	2ff#Xm\
4r	4r	4r	.	.	.	.	.	.	8gg\L
.	.	.	.	.	.	.	.	.	8dd\
!LO:TX:a:t=P:problem:pod pauzą plama przypominająca główkę nuty na wysokości C	!	!	!	!	!	!	!	!	!
8r	8r	8r	.	.	.	.	.	.	8ee-\
!	!	!	!	!	!	!	!	!	!LO:TX:t=b
8G\	8g/	8g/	.	.	.	.	.	.	8ddn\J 8b\
!	!	!	!	!	!	!	!	!	!LO:LB:g=original
=11	=11	=11	=11	=11	=11	=11	=11	=11	=11
4c\	4cc\	4cc\	.	.	.	.	.	.	16gg\LL
.	.	.	.	.	.	.	.	.	16ff#X\
.	.	.	.	.	.	.	.	.	16gg\
.	.	.	.	.	.	.	.	.	16dd\JJ
8r	8r	8r	.	.	.	.	.	.	8ee-\L
8G\	8g/	8g/	.	.	.	.	.	.	8bn\J
!LO:TX:t=P:problem:mixed beam	!	!	!	!	!	!	!	!	!
8c\L	16cc/LL	16cc'\LL	.	.	.	.	.	.	4cc\
.	16e-'/	(16cc'\	.	.	.	.	.	.	.
8C/	16e-'/	16cc'\	.	.	.	.	.	.	.
.	(16e-'/JJ	16cc'\JJ)	.	.	.	.	.	.	.
8C/	16e-'/LL	16cc'\LL	.	.	.	.	.	.	8r
.	16e-'/	(16cc'\	.	.	.	.	.	.	.
8C/J	16e-'/)	16cc'\)	.	.	.	.	.	.	16cc\LL
.	16e-'/JJ	16cc'\JJ	.	.	.	.	.	.	16dd\JJ
=12	=12	=12	=12	=12	=12	=12	=12	=12	=12
8F#X\L	16cc\LL	16ee-\LL	.	.	.	.	.	.	4ee-\
.	16cc\	16ee-\	.	.	.	.	.	.	.
8F#\	16cc\	16ee-\	.	.	.	.	.	.	.
.	16cc\JJ	16ee-\JJ	.	.	.	.	.	.	.
8F#\	16cc\LL	16ee-\LL	.	.	.	.	.	.	8r
.	16cc\	16ee-\	.	.	.	.	.	.	.
8F#\J	16cc\	16ee-\	.	.	.	.	.	.	8ee-\
.	16cc\JJ	16ee-\JJ	.	.	.	.	.	.	.
4G\	8bn\L	8dd\L	.	.	.	.	.	.	8dd\L
.	8ee-\	8gg\	.	.	.	.	.	.	8gg\
4r	8g\	8bn\	.	.	.	.	.	.	8bn\
.	8an\J	8cc\J	.	.	.	.	.	.	8cc\J
=13	=13	=13	=13	=13	=13	=13	=13	=13	=13
8r	16b\LL	16dd\LL	00r	.	0r	.	1rcc	.	16dd\LL
.	16cc\JJ	16ee-\JJ	.	.	.	.	.	.	16ee-\JJ
16G\LL	4dd\	4ff\	.	.	.	.	.	.	4ff\
16An\JJ	.	.	.	.	.	.	.	.	.
8Bn\L	.	.	.	.	.	.	.	.	.
!	!LO:LB:g=original	!LO:LB:g=original	!	!	!	!	!	!	!
*	*Xtuplet	*Xtuplet	*	*	*	*	*	*	*Xtuplet
!	!	!	!	!	!	!	!	!	!LO:N:vis=12
!	!	!LO:SIC:s=24aa-\LL:v	!	!	!	!	!	!	!LO:SIC:s=24aa-\LL:v
8G\J	24ff\LL	24aa\LL	.	.	.	.	.	.	24aa\LL
.	24ee-\	24gg\	.	.	.	.	.	.	24gg\
.	24dd\JJ	24ff\JJ	.	.	.	.	.	.	24ff\JJ
8c\L	8cc\L	8ee-\L	.	.	.	.	.	.	8ee-\L
8F\J	16b\L	16dd\L	.	.	.	.	.	.	16dd\L
.	16a-X\JJ	16cc\JJ	.	.	.	.	.	.	16cc\JJ
!LO:TX:t=P:problem:mixed beam	!	!	!	!	!	!	!	!	!
8G\L	8.g/L	8.bnt\L	.	.	.	.	.	.	8.bnm\L
8GG/J	.	.	.	.	.	.	.	.	.
.	16g/Jk	16b\Jk	.	.	.	.	.	.	16b\Jk
=14	=14	=14	=14	=14	=14	=14	=14	=14	=14
!	!	!	!	!	!	!	!	!LO:SIC:l:s=Quam:v	!
4C/	4g/	4cc\	.	.	.	.	8cc\	Quan	4cc\
.	.	.	.	.	.	.	16cc\	to-	.
.	.	.	.	.	.	.	16cc\	-to	.
4r	4r	4r	.	.	.	.	16cc\	cae-	4r
.	.	.	.	.	.	.	16cc\	-lo	.
.	.	.	.	.	.	.	16cc\	er-	.
.	.	.	.	.	.	.	16dd\	-ras	.
2r	2r	2r	.	.	.	.	8ee-\	cor	2r
.	.	.	.	.	.	.	8bn\	hu-	.
.	.	.	.	.	.	.	8cc\	-ma-	.
.	.	.	.	.	.	.	8g\	-num	.
!LO:LB:g=original	!	!	!	!	!	!	!	!	!
=15	=15	=15	=15	=15	=15	=15	=15	=15	=15
1r	1r	1r	.	.	8cc\	Qvam	8ee-\	qvam	00r
.	.	.	.	.	16cc\	to-	16ee-\	to-	.
.	.	.	.	.	16cc\	-to	16ee-\	-to	.
.	.	.	.	.	16cc\	cae-	16ee-\	cae-	.
.	.	.	.	.	16cc\	-lo	16ee-\	-lo	.
!	!	!	!	!	!	!	!LO:LB:g=original	!	!
.	.	.	.	.	16cc\	er-	16ee-\	er-	.
.	.	.	.	.	16dd\	-ras	16ff\	-ras	.
.	.	.	.	.	8ee-\	Cor	8gg\	Cor	.
.	.	.	.	.	8bn\	hu-	8dd\	hu-	.
.	.	.	.	.	8cc\	-ma-	8ee-\	-ma-	.
.	.	.	.	.	8g\	-num	8cc\	-num	.
=16	=16	=16	=16	=16	=16	=16	=16	=16	=16
8C/L	8c/L	8e-/L	.	.	16ee-\LL	Qvan-	16gg\LL	Qvan-	.
.	.	.	.	.	16dd\JJ	.	16ff\JJ	.	.
8C/	8c/	8e-/	.	.	8cc\	-do	8ee-\	-do	.
!	!	!	!	!	!LO:LB:g=original	!	!	!	!
8C/	8c/	8e-/	.	.	16ee-\	di-	16gg\	di-	.
.	.	.	.	.	16dd\	-li-	16ff\	-li-	.
8C/J	8c/J	8e-/J	.	.	8cc\	-gis	8ee-\	-gis	.
8C/L	8c/L	8e-/L	.	.	16ee-\	a-	16gg\	a-	.
.	.	.	.	.	16dd\	-li-	16ff\	-li-	.
8C/	8c/	8e-/	.	.	16cc\	-qvid	16ee-\	-qvid	.
.	.	.	.	.	16dd\	mun-	16ff\	mun-	.
8C/	8c/	8e-/	.	.	8ee-\	-da-	8gg\	-da-	.
8C/J	8c/J	8e-/J	.	.	8cc\	-num	8ee-\	-num	.
!	!	!	!	!	!	!	!LO:LB:g=original	!	!
=17	=17	=17	=17	=17	=17	=17	=17	=17	=17
8G\L	8Bn/L	8d/L	1rG	.	16dd\LL	Qvan-	16ff\LL	Qvan-	.
.	.	.	.	.	16cc\JJ	.	16ee-\JJ	.	.
8G\	8B/	8d/	.	.	8bn\	-do	8dd\	-do	.
8G\	8B/	8d/	.	.	16dd\	di-	16ff\	di-	.
.	.	.	.	.	16cc\	-li-	16ee-\	-li-	.
8G\J	8B/J	8d/J	.	.	8b\	-gis	8dd\	-gis	.
8G\L	8B/L	8d/L	.	.	16dd\	a-	16ff\	a-	.
.	.	.	.	.	16cc\	-li-	16ee-\	-li-	.
!	!	!	!	!	!LO:LB:g=original	!	!	!	!
8G\	8B/	8d/	.	.	16bn\	-qvid	16dd\	-qvid	.
.	.	.	.	.	16cc\	mun-	16ee-\	mun-	.
8G\	8B/	8d/	.	.	8dd\	-da-	8ff\	-da-	.
8G\J	8B/J	8d/J	.	.	8bn\	-num	8dd\	-num	.
=18	=18	=18	=18	=18	=18	=18	=18	=18	=18
8c\L	8c/L	8e-/L	8r	.	1r	.	1r	.	.
8G\J	8B/J	8d/J	16G\	To-	.	.	.	.	.
.	.	.	16G\	-to	.	.	.	.	.
4r	4r	4r	8c\	cae-	.	.	.	.	.
.	.	.	8Bn\	-lo	.	.	.	.	.
8r	8r	8r	8c\	er-	.	.	.	.	.
8G\L	8Bn/L	8d/L	8G\	-ras	.	.	.	.	.
8G\	8B/	8d/	8r	.	.	.	.	.	.
8G\J	8B/J	8d/J	16G\	to-	.	.	.	.	.
.	.	.	16G\	-to	.	.	.	.	.
=19	=19	=19	=19	=19	=19	=19	=19	=19	=19
8c\L	8c/L	8e-/L	8c\	cae-	2r	.	2r	.	00r
8G\J	8Bn/J	8d/J	8Bn\	-lo	.	.	.	.	.
!	!LO:LB:g=original	!	!	!	!	!	!	!	!
4r	4r	4r	8c\	er-	.	.	.	.	.
.	.	.	8G\	-ras	.	.	.	.	.
!	!	!LO:LB:g=original	!	!	!	!	!	!	!
8C/L	8c/L	8e-/L	2r	.	16ee-\LL	Qvan-	16gg\LL	Qvan-	.
.	.	.	.	.	16dd\JJ	.	16ff\JJ	.	.
8C/	8c/	8e-/	.	.	8cc\	-do	8ee-\	-do	.
8C/	8c/	8e-/	.	.	16ee-\	di-	16gg\	di-	.
.	.	.	.	.	16dd\	-li-	16ff\	-li-	.
8C/J	8c/J	8e-/J	.	.	8cc\	-gis	8ee-\	-gis	.
!	!	!	!LO:LB:g=original	!	!	!	!LO:LB:g=original	!	!
=20	=20	=20	=20	=20	=20	=20	=20	=20	=20
8C/L	8c/L	8e-/L	1r	.	16ee-\	a-	16gg\	a-	.
.	.	.	.	.	16dd\	-li-	16ff\	-li-	.
8C/	8c/	8e-/	.	.	16cc\	-qvid	16ee-\	-qvid	.
.	.	.	.	.	16dd\	mun-	16ff\	mun-	.
8C/	8c/	8e-/	.	.	8ee-\	-da-	8gg\	-da-	.
8C/J	8c/J	8e-/J	.	.	8cc\	-num	8ee-\	-num	.
!	!	!	!	!	!LO:LB:g=original	!	!	!	!
!	!LO:SIC:s=8Bn/L:v	!	!	!	!	!	!	!	!
!	!LO:TX:t=P:problem:kasownik zapisany nieco niżej - korekta wysokości?	!	!	!	!	!	!	!	!
8G\L	8cn/L	8d/L	.	.	16dd\LL	Qvan-	16ff\LL	Qvan-	.
.	.	.	.	.	16cc\JJ	.	16ee-\JJ	.	.
!	!LO:SIC:s=8Bn/:v	!	!	!	!	!	!	!	!
8G\	8c/	8d/	.	.	8bn\	-do	8dd\	-do	.
!	!LO:SIC:s=8Bn/:v	!	!	!	!	!	!	!	!
8G\	8c/	8d/	.	.	16dd\	di-	16ff\	di-	.
.	.	.	.	.	16cc\	-li-	16ee-\	-li-	.
!	!LO:SIC:s=8Bn/J:v	!	!	!	!	!	!	!	!
8G\J	8c/J	8d/J	.	.	8b\	-gis	8dd\	-gis	.
!LO:LB:g=original	!	!	!	!	!	!	!	!	!
=21	=21	=21	=21	=21	=21	=21	=21	=21	=21
8G\L	8Bn/L	8d/L	2r	.	16dd\	a-	16ff\	a-	.
.	.	.	.	.	16cc\	-li-	16ee-\	-li-	.
8G\	8B/	8d/	.	.	16bn\	-qvid	16dd\	-qvid	.
.	.	.	.	.	16cc\	mun-	16ee-\	mun-	.
8G\	8B/	8d/	.	.	8dd\	-da-	8ff\	-da-	.
8G\J	8B/J	8d/J	.	.	8b\	-num	8dd\	-num	.
8c\L	8c/L	8e-/L	8r	.	2r	.	2r	.	.
8G\J	8Bn/J	8d/J	16G\	To-	.	.	.	.	.
.	.	.	16G\	-to	.	.	.	.	.
4r	4r	4r	8c\	cae-	.	.	.	.	.
.	.	.	8Bn\	-lo	.	.	.	.	.
!	!	!	!	!	!	!	!LO:LB:g=original	!	!
=22	=22	=22	=22	=22	=22	=22	=22	=22	=22
!	!	!	!	!LO:SIC:l:s=er-:v	!	!	!	!	!
8r	8r	8r	8c\	e-	00r	.	00r	.	.
8G\L	8Bn/L	8d/L	8G\	-ras	.	.	.	.	.
8G\	8B/	8d/	8r	.	.	.	.	.	.
!	!	!	!	!LO:SIC:l:s=er-:v	!	!	!	!	!
8G\J	8B/J	8d/J	16G\	e-	.	.	.	.	.
.	.	.	16G\	-ras	.	.	.	.	.
4c\	4c/	4e-/	8c\	to-	.	.	.	.	.
.	.	.	8Bn\	-to	.	.	.	.	.
4r	4r	4r	8c\	cae-	.	.	.	.	.
.	.	.	8G\	-lo	.	.	.	.	.
=23	=23	=23	=23	=23	=23	=23	=23	=23	=23
8C/L	8e-/L	8e-/L	00r	.	.	.	.	.	8ee-\L
8C/	8e-/	8e-/	.	.	.	.	.	.	16gg\L
.	.	.	.	.	.	.	.	.	16aa-X\JJ
!	!	!	!	!	!	!	!	!	!LO:TX:a:t=P:problem:niejednoznacznie zapisana wysokość dźwięku, być może 8aa\L
8C/	8e-/	8e-/	.	.	.	.	.	.	8gg\L
8C/J	8e-/J	8e-/J	.	.	.	.	.	.	16ff\L
.	.	.	.	.	.	.	.	.	16ee-\JJ
!LO:SIC:s=8BBn/L:v	!	!	!	!	!	!	!	!	!
8BB-X/L	8Bn/L	8d/L	.	.	.	.	.	.	8dd\L
!LO:SIC:s=8BBn/:v	!	!	!	!	!	!	!	!	!
8BB-/	8B/	8d/	.	.	.	.	.	.	16ff\L
.	.	.	.	.	.	.	.	.	16gg\JJ
!LO:SIC:s=8BBn/:v	!	!	!	!	!	!	!	!	!
8BB-/	8B/	8d/	.	.	.	.	.	.	8ff\L
!LO:SIC:s=8BBn/J:v	!	!	!	!	!	!	!	!	!
8BB-/J	8B/J	8d/J	.	.	.	.	.	.	16ee-\L
.	.	.	.	.	.	.	.	.	16dd\JJ
!	!	!	!	!	!	!	!	!	!LO:LB:g=original
=24	=24	=24	=24	=24	=24	=24	=24	=24	=24
8C\L	8c/L	8c/L	.	.	.	.	.	.	8cc\L
8C\	8c/	8c/	.	.	.	.	.	.	16ee-\L
.	.	.	.	.	.	.	.	.	16ff\JJ
8A-X\	8a-X/	8a-X/	.	.	.	.	.	.	8ee-\L
8A-\J	8a-/J	8a-/J	.	.	.	.	.	.	16dd\L
.	.	.	.	.	.	.	.	.	16cc\JJ
!	!LO:LB:g=original	!	!	!	!	!	!	!	!
8G\L	8g/L	8g/L	.	.	.	.	.	.	16bn\LL
.	.	.	.	.	.	.	.	.	16cc\JJ
8An\	8an/	8an/	.	.	.	.	.	.	16dd\LL
.	.	.	.	.	.	.	.	.	16b\JJ
8Bn\	8bn/	8bn/	.	.	.	.	.	.	4g/
8G\J	8g/J	8g/J	.	.	.	.	.	.	.
!	!	!LO:LB:g=original	!	!	!	!	!	!	!
=25	=25	=25	=25	=25	=25	=25	=25	=25	=25
8G\L	16r	16r	.	.	.	.	.	.	8g\L
.	16d/KL	16bn\KL	.	.	.	.	.	.	.
8G\	8dt/J	8bt\J	.	.	.	.	.	.	16bn\L
.	.	.	.	.	.	.	.	.	16cc\JJ
8G\	16r	16r	.	.	.	.	.	.	16dd\LL
.	16d/KL	16b\KL	.	.	.	.	.	.	16g\J
8G\J	8dt/J	8bt\J	.	.	.	.	.	.	8gM\J
8G\L	16r	16r	.	.	.	.	.	.	8g\L
.	16e-/KL	16cc\KL	.	.	.	.	.	.	.
!	!LO:N:vis=16	!	!	!	!	!	!	!	!
8G\	8e-T/J	8ccT\J	.	.	.	.	.	.	16cc\L
.	.	.	.	.	.	.	.	.	16dd\JJ
8G\	16r	16r	.	.	.	.	.	.	16ee-\LL
.	16e-/KL	16cc\KL	.	.	.	.	.	.	16g\J
8G\J	8e-T/J	8ccT\J	.	.	.	.	.	.	8gM\J
!LO:LB:g=original	!	!	!	!	!	!	!	!	!
=26	=26	=26	=26	=26	=26	=26	=26	=26	=26
8G\L	16r	16r	.	.	00r	.	00r	.	8g\L
.	16f/KL	16dd\KL	.	.	.	.	.	.	.
8G\	8fT/J	8ddt\J	.	.	.	.	.	.	16dd\L
.	.	.	.	.	.	.	.	.	16ee-\JJ
!	!	!	!	!	!	!	!	!	!LO:TX:t=P:problem:mixed beam
!	!	!	!	!	!	!	!	!	!LO:TX:t=f
8G\	16r	16r	.	.	.	.	.	.	16ff\LL
.	16f/KL	16dd\KL	.	.	.	.	.	.	16g/J
8G\J	8fT/J	8ddt\J	.	.	.	.	.	.	8g/J
2r	2r	2r	.	.	.	.	.	.	4aa-X\
.	.	.	.	.	.	.	.	.	8ryy
.	.	.	.	.	.	.	.	.	8gg'\
=27	=27	=27	=27	=27	=27	=27	=27	=27	=27
.	.	.	.	.	.	.	.	.	8qqgg/
*	*	*	*	*	*	*	*	*	*2\right
2r	2r	2r	00r	.	.	.	.	.	2ff#X\
4r	4r	4r	.	.	.	.	.	.	8gg\L
.	.	.	.	.	.	.	.	.	8dd\
8r	8r	8r	.	.	.	.	.	.	8ee-\
8G\	8g/	8g/	.	.	.	.	.	.	8bn\J
=28	=28	=28	=28	=28	=28	=28	=28	=28	=28
4c\	4cc\	4cc\	.	.	.	.	.	.	16gg\LL
.	.	.	.	.	.	.	.	.	16ff#X\
.	.	.	.	.	.	.	.	.	16gg\
.	.	.	.	.	.	.	.	.	16dd\JJ
8r	8r	8r	.	.	.	.	.	.	8ee-\L
8G\	8g/	8g/	.	.	.	.	.	.	8bn\J
!LO:TX:t=P:problem:mixed beam	!	!	!	!	!	!	!	!	!
8c\L	16e-/LL	(16cc'\LL	.	.	.	.	.	.	8r
.	16e-/	16cc'\	.	.	.	.	.	.	.
8C/	16e-/	16cc'\	.	.	.	.	.	.	4ryy
.	16e-/JJ	16cc'\JJ)	.	.	.	.	.	.	.
!	!LO:LB:g=original	!	!	!	!	!	!	!	!
8C/	16e-/LL	(16cc'\LL	.	.	.	.	.	.	.
.	16e-/	16cc'\	.	.	.	.	.	.	.
8C/J	16e-/	16cc'\)	.	.	.	.	.	.	16cc\LL
.	16e-/JJ	16cc'\JJ	.	.	.	.	.	.	16dd\JJ
!	!	!LO:LB:g=original	!	!	!	!	!	!	!LO:LB:g=original
=29	=29	=29	=29	=29	=29	=29	=29	=29	=29
8F#X\L	16cc\LL	16ee-\LL	.	.	.	.	.	.	4ee-\
.	16cc\	16ee-\	.	.	.	.	.	.	.
8F#\	16cc\	16ee-\	.	.	.	.	.	.	.
.	16cc\JJ	16ee-\JJ	.	.	.	.	.	.	.
8F#\	16cc\LL	16ee-\LL	.	.	.	.	.	.	8r
.	16cc\	16ee-\	.	.	.	.	.	.	.
8F#\J	16cc\	16ee-\	.	.	.	.	.	.	8ee-\
.	16cc\JJ	16ee-\JJ	.	.	.	.	.	.	.
4G\	8bn\L	8dd\L	.	.	.	.	.	.	8dd\L
.	8ee-\	8gg\	.	.	.	.	.	.	8gg\
4r	8g\	8bn\	.	.	.	.	.	.	8bn\
.	8an\J	8cc\J	.	.	.	.	.	.	8cc\J
=30	=30	=30	=30	=30	=30	=30	=30	=30	=30
!	!	!LO:N:vis=8	!	!	!	!	!	!	!
8r	16b\LL	16dd\LL	.	.	0r	.	1r	.	16dd\LL
!	!	!LO:N:vis=8	!	!	!	!	!	!	!
.	16cc\JJ	16ee-\JJ	.	.	.	.	.	.	16ee-\JJ
!	!	!	!	!	!	!	!	!	!LO:TX:t=f
16G\LL	4dd\	4ff\	.	.	.	.	.	.	4ff\
16An\JJ	.	.	.	.	.	.	.	.	.
8Bn\L	.	.	.	.	.	.	.	.	.
!	!	!LO:SIC:s=24aa-\LL:v	!	!	!	!	!	!	!LO:SIC:s=24aa-\LL:v
8G\J	24ff\LL	24aa\LL	.	.	.	.	.	.	24aa\LL
.	24ee-\	24gg\	.	.	.	.	.	.	24gg\
.	24dd\JJ	24ff\JJ	.	.	.	.	.	.	24ff\JJ
!LO:TX:t=P:problem:mixed beam	!	!	!	!	!	!	!	!	!
8c\L	8cc/L	8ee-\L	.	.	.	.	.	.	8ee-\L
8F\	16b/L	16dd\L	.	.	.	.	.	.	16dd\L
.	16a-X/JJ	16cc\JJ	.	.	.	.	.	.	16cc\JJ
8G\	8.g/L	8.bnt\L	.	.	.	.	.	.	8.bn\L
8GG/J	.	.	.	.	.	.	.	.	.
!	!	!LO:TX:a:t=|:problem	!	!	!	!	!	!	!
.	16g/Jk	16b\Jk	.	.	.	.	.	.	16b\Jk
=31	=31	=31	=31	=31	=31	=31	=31	=31	=31
4C/	4g/	4cc\	00r	.	.	.	8cc\	Qvam	4cc\
.	.	.	.	.	.	.	16cc\	to-	.
.	.	.	.	.	.	.	16cc\	-to	.
4r	4r	4r	.	.	.	.	16cc\	cae-	4r
.	.	.	.	.	.	.	16cc\	-lo	.
.	.	.	.	.	.	.	16cc\	er-	.
.	.	.	.	.	.	.	16dd\	-ras	.
2r	2r	2r	.	.	.	.	8ee-\	cor	2r
.	.	.	.	.	.	.	8bn\	hu-	.
.	.	.	.	.	.	.	8cc\	-ma-	.
.	.	.	.	.	.	.	8g\	-num	.
!LO:LB:g=original	!	!	!	!	!	!	!	!	!
=32	=32	=32	=32	=32	=32	=32	=32	=32	=32
!	!	!	!	!	!	!	!	!	!LO:TX:t=6
1r	1r	1r	.	.	8cc\	Qvam	8ee-\	Qvam	00r
.	.	.	.	.	16cc\	to-	16ee-\	to-	.
.	.	.	.	.	16cc\	-to	16ee-\	-to	.
.	.	.	.	.	16cc\	Cae-	16ee-\	cae-	.
.	.	.	.	.	16cc\	-lo	16ee-\	-lo	.
!	!	!	!	!	!LO:LB:g=original	!	!	!	!
.	.	.	.	.	16cc\	er-	16ee-\	er-	.
.	.	.	.	.	16dd\	-ras	16ff\	-ras	.
!	!	!	!	!	!	!	!LO:LB:g=original	!	!
.	.	.	.	.	8ee-\	cor	8gg\	Cor	.
.	.	.	.	.	8bn\	hu-	8dd\	hu-	.
.	.	.	.	.	8cc\	-ma-	8ee-\	-ma-	.
.	.	.	.	.	8g\	-num	8cc\	-num	.
=33	=33	=33	=33	=33	=33	=33	=33	=33	=33
8C/L	8c/L	8e-/L	.	.	16ee-\LL	Qvan-	16gg\LL	Qvan-	.
.	.	.	.	.	16dd\JJ	.	16ff\JJ	.	.
8C/	8c/	8e-/	.	.	8cc\	-do	8ee-\	-do	.
8C/	8c/	8e-/	.	.	16ee-\	di-	16gg\LL	di-	.
!	!	!	!	!	!	!	!	!LO:SIC:l:s=li:v	!
.	.	.	.	.	16dd\	-li-	16ff\JJ	-l-	.
8C/J	8c/J	8e-/J	.	.	8cc\	-gis	8ee-\	-gis	.
!	!LO:LB:g=original	!	!	!	!	!	!	!	!
8C/L	8c/L	8e-/L	.	.	16ee-\	a-	16gg\	a-	.
.	.	.	.	.	16dd\	-li-	16ff\	-li-	.
8C/	8c/	8e-/	.	.	16cc\	-qvid	16ee-\	-qvid	.
.	.	.	.	.	16dd\	mun-	16ff\	mun-	.
8C/	8c/	8e-/	.	.	8ee-\	-da-	8gg\	-da-	.
8C/J	8c/J	8e-/J	.	.	8cc\	-num	8ee-\	-num	.
!	!	!LO:LB:g=original	!	!	!	!	!	!	!
=34	=34	=34	=34	=34	=34	=34	=34	=34	=34
8G\L	8Bn/L	8d/L	.	.	16dd\LL	Qvan-	16ff\LL	Qvan-	.
.	.	.	.	.	16cc\JJ	.	16ee-\JJ	.	.
8G\	8B/	8d/	.	.	8b\	-do	8dd\	-do	.
!	!	!	!	!	!LO:LB:g=original	!	!LO:LB:g=original	!	!
8G\	8B/	8d/	.	.	16dd\	di-	16ff\	di-	.
.	.	.	.	.	16cc\	-li-	16ee-\	-li-	.
8G\J	8B/J	8d/J	.	.	8b\	-gis	8dd\	-gis	.
8G\L	8B/L	8d/L	.	.	16dd\	a-	16ff\	a-	.
.	.	.	.	.	16cc\	-li-	16ee-\	-li-	.
8G\	8B/	8d/	.	.	16b\	-qvid	16dd\	-qvid	.
.	.	.	.	.	16cc\	mun-	16ee-\	mun-	.
8G\	8B/	8d/	.	.	8dd\	-da-	8ff\	-da-	.
8G\J	8B/J	8d/J	.	.	8b\	-num	8dd\	-num	.
=35	=35	=35	=35	=35	=35	=35	=35	=35	=35
8c\L	8c/L	8e-/L	8r	.	1r	.	1r	.	.
8G\J	8Bn/J	8d/J	16G\	to-	.	.	.	.	.
.	.	.	16G\	-to	.	.	.	.	.
!	!	!	!LO:LB:g=original	!	!	!	!	!	!
4r	4r	4r	8c\	cae-	.	.	.	.	.
.	.	.	8Bn\	-lo	.	.	.	.	.
!	!	!	!	!LO:SIC:l:s=er:v	!	!	!	!	!
8r	8r	8r	8c\	e-	.	.	.	.	.
8G\L	8B/L	8d/L	8G\	-ras	.	.	.	.	.
8G\	8B/	8d/	8r	.	.	.	.	.	.
!	!	!	!	!LO:SIC:l:s=er:v	!	!	!	!	!
8G\J	8B/J	8d/J	16G\	e-	.	.	.	.	.
.	.	.	16G\	-ras	.	.	.	.	.
=36	=36	=36	=36	=36	=36	=36	=36	=36	=36
4C/	4c/	4e-/	8c\	to-	2r	.	2r	.	1r
.	.	.	8Bn\	-to	.	.	.	.	.
!	!	!	!	!LO:SIC:l:s=cae-:v	!	!	!	!	!
4r	4r	4r	8c\	ce-	.	.	.	.	.
.	.	.	8G\	-lo	.	.	.	.	.
8C/L	2r	2r	2r	.	16ee-\LL	Qvan-	16gg\LL	Qvan-	.
.	.	.	.	.	16dd\JJ	.	16ff\JJ	.	.
8C/	.	.	.	.	8cc\	-do	8ee-\	-do	.
8C/	.	.	.	.	16ee-\	di-	16gg\	di-	.
.	.	.	.	.	16dd\	-li-	16ff\	-li-	.
8C/J	.	.	.	.	8cc\	-gis	8ee-\	-gis	.
=37	=37	=37	=37	=37	=37	=37	=37	=37	=37
!	!	!	!	!	!	!	!	!	!LO:TX:a:t=P:problem:pominięto zapis pauzy
8BB-X/L	0r	0r	2r	.	16dd\	a-	16ff\	a-	1ryy
.	.	.	.	.	16dd\	-li-	16ff\	-li-	.
!	!	!	!	!	!LO:LB:g=original	!	!LO:LB:g=original	!	!
8BB-/	.	.	.	.	16dd\	-qvid	16ff\	-qvid	.
.	.	.	.	.	16dd\	mun-	16ff\	mun-	.
8BB-/	.	.	.	.	8dd\	-da-	8ff\	-da-	.
8BBn/J	.	.	.	.	16cc\LL	-num	16ee-\LL	-num	.
.	.	.	.	.	16bn\JJ	.	16dd\JJ	.	.
8C/L	.	.	8c\	a-	8cc\	a-	8ee-\	a-	.
8GG/	.	.	8G\	-li-	8bn\	-li-	8dd\	-li-	.
8C/	.	.	8c\	-qvid	8cc\	-qvid	8ee-\	-qvid	.
8GG/J	.	.	8G\	mun-	8bn\	mun-	8dd\	mun-	.
!LO:LB:g=original	!	!	!	!	!	!	!	!	!
=38	=38	=38	=38	=38	=38	=38	=38	=38	=38
!	!	!	!LO:SIC:s=8A-\L:v	!	!	!	!	!	!
!LO:TX:t=P:problem:mixed beam	!	!	!LO:TX:t=P:problem:mixed beam	!	!	!	!	!	!LO:TX:a:t=P:problem:pominięto zapis pauzy
8A-X\L	.	.	8A\L	-da-	8cc\L	-da-	8ee-\L	-da-	2ryy
8F\	.	.	8F\	.	16bn\L	.	16dd\L	.	.
.	.	.	.	.	16a-X\JJ	.	16cc\JJ	.	.
!	!	!	!	!	!	!	!LO:SIC:s=4bnt\:v	!	!
8G\	.	.	8G\	.	4g\	.	4b-T\	.	.
8GG/J	.	.	8GG/J	.	.	.	.	.	.
!	!	!	!LO:LB:g=original	!	!	!	!	!	!
4C/	.	.	4C/	-num	4g\	-num	8cc\	.	8r
.	.	.	.	.	.	.	8cc\	-num	8cc\L
4r	.	.	4r	.	4r	.	4r	.	8bn\
.	.	.	.	.	.	.	.	.	8cc\J
=39	=39	=39	=39	=39	=39	=39	=39	=39	=39
!	!	!	!	!	!	!	!	!	!LO:TX:t=P:problem:mixed beam
8r	1r	2r	00r	.	00r	.	00r	.	8dd\L
8GG/L	.	.	.	.	.	.	.	.	8g/J
16AAn/L	.	.	.	.	.	.	.	.	8ff\L
16BBn/J	.	.	.	.	.	.	.	.	.
!LO:N:vis=16	!	!	!	!	!	!	!	!	!
8BB/J	.	.	.	.	.	.	.	.	16ee-\L
!	!	!	!	!	!	!	!	!	!LO:TX:t=P:problem:dodatkowa kreska taktowa po 16dd\JJ
.	.	.	.	.	.	.	.	.	16dd\JJ
4C/	.	8r	.	.	.	.	.	.	8ee-\L
.	.	8cc\L	.	.	.	.	.	.	8ee-\
4r	.	8bn\	.	.	.	.	.	.	8dd\
!	!	!	!	!	!	!	!	!	!LO:TX:t=P:problem:brak kreski taktowej
.	.	8cc\J	.	.	.	.	.	.	8ee-\J
=40	=40	=40	=40	=40	=40	=40	=40	=40	=40-
8r	2r	8dd\L	.	.	.	.	.	.	8ff\L
8BB-X/L	.	8dd\J	.	.	.	.	.	.	8b-X\J
8C/	.	8ff\L	.	.	.	.	.	.	8aa-X\L
8D/J	.	16ee-\L	.	.	.	.	.	.	16gg\L
!	!	!	!	!	!	!	!	!	!LO:TX:a:t=P:problem:dodatkowa kreska taktowa po 16ff\JJ
.	.	16dd\JJ	.	.	.	.	.	.	16ff\JJ
8E-\L	16ee-\LL	16ee-\LL	.	.	.	.	.	.	4gg\
.	16dd\JJ	16ff\	.	.	.	.	.	.	.
8E-\	16ee-\LL	16gg\	.	.	.	.	.	.	.
.	16ff\JJ	16aa\JJ	.	.	.	.	.	.	.
!	!	!LO:SIC:s=16bb-\LL:v	!	!	!	!	!	!	!
8E-\	16gg\LL	16bb\LL	.	.	.	.	.	.	4r
.	16ff\	16aa-X\	.	.	.	.	.	.	.
8E-\J	16ff\	16aa-\	.	.	.	.	.	.	.
.	16ee-\JJ	16gg\JJ	.	.	.	.	.	.	.
!	!	!LO:LB:g=original	!	!	!	!	!	!	!LO:LB:g=original
=41	=41	=41	=41	=41	=41	=41	=41	=41	=41
8E-\L	16aa-X\LL	16ccc\LL	.	.	.	.	.	.	1r
!	!	!LO:SIC:s=16bb-\:v	!	!	!	!	!	!	!
.	16gg\	16bb\	.	.	.	.	.	.	.
!	!	!LO:SIC:s=16bb-\:v	!	!	!	!	!	!	!
8E-\	16gg\	16bb\	.	.	.	.	.	.	.
.	16ff\JJ	16aa-X\JJ	.	.	.	.	.	.	.
!	!LO:LB:g=original	!	!	!	!	!	!	!	!
8E-\	16ee-\LL	16gg\LL	.	.	.	.	.	.	.
.	16ff\J	16aa-\J	.	.	.	.	.	.	.
!	!	!LO:SIC:s=8bb-\J:v	!	!	!	!	!	!	!
8E-\J	8gg\J	8bb\J	.	.	.	.	.	.	.
!LO:TX:t=P:problem:mixed beam	!	!	!	!	!	!	!	!	!
8B-X\L	16ff\LL	16aa-\LL	.	.	.	.	.	.	.
.	16ee-\	16gg\	.	.	.	.	.	.	.
!LO:SIC:s=8BB-/:v	!	!	!	!	!	!	!	!	!
8BB/	16ee-\	16gg\	.	.	.	.	.	.	.
.	16dd\JJ	16ff\JJ	.	.	.	.	.	.	.
!LO:SIC:s=8BB-/:v	!	!	!	!	!	!	!	!	!
8BB/	16dd\LL	16ff\LL	.	.	.	.	.	.	.
.	16ee-\J	16gg\J	.	.	.	.	.	.	.
!LO:SIC:s=8BB-/J:v	!	!	!	!	!	!	!	!	!
8BB/J	8ff\J	8aa-\J	.	.	.	.	.	.	.
=42	=42	=42	=42	=42	=42	=42	=42	=42	=42
!LO:TX:t=P:problem:mixed beam	!	!	!	!	!	!	!	!	!
8E-\L	8ee-\L	8gg\L	.	.	.	.	.	.	2r
8A-X\	16dd\L	16ff\L	.	.	.	.	.	.	.
.	16cc\JJ	16ee-\JJ	.	.	.	.	.	.	.
!LO:SIC:s=8B-\:v	!LO:SIC:s=8.b-/L:v	!	!	!	!	!	!	!	!
8B\	8.b/L	8.dd\L	.	.	.	.	.	.	.
!LO:SIC:s=8BB-/J:v	!	!	!	!	!	!	!	!	!
8BB/J	.	.	.	.	.	.	.	.	.
.	16a-X/Jk	16dd\Jk	.	.	.	.	.	.	.
4E-\	4g/	4ee-\	.	.	.	.	.	.	4r
4r	8r	8r	.	.	.	.	.	.	8r
.	8bn\	8dd\	.	.	.	.	.	.	8gg\
!LO:LB:g=original	!	!	!	!	!	!	!	!	!
=43	=43	=43	=43	=43	=43	=43	=43	=43	=43
4r	8cc\L	8ee-T\L	0r	.	0r	.	0r	.	2gg\
.	8b\	8dd\	.	.	.	.	.	.	.
8r	8cc\	8ee-T\	.	.	.	.	.	.	.
8G\L	8b\J	8dd\J	.	.	.	.	.	.	.
8c\	8cc\L	8ee-T\L	.	.	.	.	.	.	2gg\
8G\J	8b\J	8dd\J	.	.	.	.	.	.	.
4r	8r	8r	.	.	.	.	.	.	.
.	8b\	8dd\	.	.	.	.	.	.	.
=44	=44	=44	=44	=44	=44	=44	=44	=44	=44
4r	8cc\L	8ee-T\L	.	.	.	.	.	.	2gg\
.	8b\	8dd\	.	.	.	.	.	.	.
8r	8cc\	8ee-T\	.	.	.	.	.	.	.
8G\	8b\J	8dd\J	.	.	.	.	.	.	.
!	!	!LO:LB:g=original	!	!	!	!	!	!	!
8c\L	8cc\L	8ee-T\L	.	.	.	.	.	.	4gg\
16G\L	8bn\J	8dd\J	.	.	.	.	.	.	.
16An\JJ	.	.	.	.	.	.	.	.	.
8Bn\L	8r	8r	.	.	.	.	.	.	8r
!	!	!	!	!	!	!	!	!	!LO:TX:t=P:problem:brak kreski taktowej
8G\J	8b\	8dd\	.	.	.	.	.	.	8dd\
!	!LO:LB:g=original	!	!	!	!	!	!	!	!
=45	=45	=45	=45	=45	=45	=45	=45	=45	=45-
!LO:TX:t=P:problem:mixed beam	!	!	!	!	!	!	!	!	!
8A-X\L	8cc/L	8ee-\L	1r	.	2r	.	2r	.	8ee-\L
!	!LO:SIC:s=16b-/L:v	!	!	!	!	!	!	!	!
8F\	16b/L	16dd\L	.	.	.	.	.	.	16dd\L
.	16a-X/JJ	16cc\JJ	.	.	.	.	.	.	16cc\JJ
8G\	8.g/L	8.bnt\L	.	.	.	.	.	.	8.b\L
8GG/J	.	.	.	.	.	.	.	.	.
.	16g/Jk	16b\Jk	.	.	.	.	.	.	16b\Jk
4C/	4g/	4cc\	.	.	4.ee-\	a-	4.gg\	a-	4cc\
4r	4r	4r	.	.	.	.	.	.	4r
.	.	.	.	.	8bn\	-mas	8dd\	-mas	.
=46	=46	=46	=46	=46	=46	=46	=46	=46	=46
8r	8r	8r	4r	.	8cc\	mun-	8ee-\	mun-	8r
!	!	!	!	!	!	!	!LO:TX:a:t=P:problem:"m" pisane ręką głównego skryptora jest niewyraźne, wyżej "m" dopisane inną ręką	!	!
8GG/L	8bn\L	8dd\L	.	.	8b\	-dum	8dd\	-dum	8dd\L
!	!	!	!	!	!LO:LB:g=original	!	!LO:LB:g=original	!	!
8GG/	8b\	8dd\	8r	.	4r	.	4r	.	8dd\
8GG/J	8b\J	8dd\J	8G\	te	.	.	.	.	8dd\J
4C/	4cc\	4ee-\	8.c\	de-	2r	.	2r	.	4ee-\
.	.	.	16Bn\	-ci-	.	.	.	.	.
4r	4r	4r	4c\	-pit	.	.	.	.	4r
=47	=47	=47	=47	=47	=47	=47	=47	=47	=47
2r	2r	2r	2r	.	4.ee-\	a-	4.gg\	a-	2r
.	.	.	.	.	8bn\	-mas	8dd\	-mas	.
8r	8r	8r	4r	.	8cc\	car-	8ee-\	car-	8r
8GG/L	8bn\L	8dd\L	.	.	8b\	-nem	8dd\	-nem	8dd\L
8GG/	8b\	8dd\	8r	.	4r	.	4r	.	8dd\
8GG/J	8b\J	8dd\J	8G\	te	.	.	.	.	8dd\J
=48	=48	=48	=48	=48	=48	=48	=48	=48	=48
!	!	!	!	!	!	!	!LO:TX:a:t=P:problem:pauzy 4r i 8r prawdopodobnie dopisane inną ręką	!	!
4C/	4cc\	4ee-\	8.c\	in-	4r	.	4r	.	4ee-\
.	.	.	16Bn\	-fi-	.	.	.	.	.
8r	4r	4r	8c\	-cit	8r	.	8r	.	4r
8E-X\	.	.	8E-X\	mi-	8ee-\	mi-	8gg\	mi-	.
!LO:LB:g=original	!	!	!	!	!	!	!	!	!
8E-\L	2r	2r	8.E-\	-se-	8.ee-\	-se-	8.gg\	-se-	2r
8E-\	.	.	.	.	.	.	.	.	.
.	.	.	16E-\	-ri-	16ee-\	-ri-	16gg\	-ri-	.
8E-\	.	.	16E-\LL	-a	8ee-\	-a	8gg\	-a	.
.	.	.	16F\JJ	.	.	.	.	.	.
!	!	!	!LO:LB:g=original	!	!	!	!	!	!
8E-\J	.	.	16G\LL	in	8ee-\	in	8gg\	in	.
.	.	.	16A-X\JJ	.	.	.	.	.	.
=49	=49	=49	=49	=49	=49	=49	=49	=49	=49
!LO:TX:t=P:problem:mixed beam	!	!	!LO:SIC:s=8.B-\:v	!	!	!	!	!	!
8B-X\L	1r	1r	8.B\	o-	8.dd\	o-	8.ff\	o-	1r
!LO:SIC:s=8BB-/:v	!	!	!	!	!	!	!	!	!
8BB/	.	.	.	.	.	.	.	.	.
!	!	!	!LO:SIC:s=16B-\:v	!	!	!	!	!	!
.	.	.	16B\	-pi-	16dd\	-pi-	16ff\	-pi-	.
!LO:SIC:s=8BB-/:v	!	!	!LO:SIC:s=4B-\:v	!	!	!	!	!	!
8BB/	.	.	4B\	-bus	4dd\	-bus	4ff\	-bus	.
!LO:SIC:s=8BB-/J:v	!	!	!	!	!	!	!	!	!
8BB/J	.	.	.	.	.	.	.	.	.
8E-\L	.	.	8E-\	va-	8ee-\	va-	8gg\	va-	.
8E-\	.	.	16E-\	-ni-	16ee-\	-ni-	16gg\	-ni-	.
.	.	.	16E-\	-tas	16ee-\	-tas	16gg\	-tas	.
!	!	!	!	!	!LO:LB:g=original	!	!LO:LB:g=original	!	!
8E-\	.	.	16E-\LL	in	8ee-\	in	8gg\	in	.
.	.	.	16F\JJ	.	.	.	.	.	.
8E-\J	.	.	16G\LL	ho-	8ee-\	ho-	8gg\	ho-	.
.	.	.	16A-X\JJ	.	.	.	.	.	.
=50	=50	=50	=50	=50	=50	=50	=50	=50	=50
!LO:TX:t=P:problem:mixed beam	!	!	!LO:SIC:s=8.B-	!	!	!	!	!	!
8B-X\L	2r	2r	8.B\	-no-	8.dd\	-no-	8.ff\	-no-	2r
8B-\	.	.	.	.	.	.	.	.	.
!	!	!	!LO:SIC:s=16B-\:v	!	!	!	!	!	!
.	.	.	16B\	-ri-	16dd\	-ri-	16ff\	-ri-	.
!LO:SIC:s=8BB-/:v	!	!	!LO:SIC:s=8B-\:v	!	!	!	!	!	!
8BB/	.	.	8B\	-bus	8dd\	-bus	8ff\	-bus	.
!LO:SIC:s=8BB-/J:v	!	!	!LO:SIC:s=8B-\:v	!	!	!	!	!	!
8BB/J	.	.	8B\	qvid	8dd\	qvid	8ff\	Qvid	.
!LO:TX:t=P:problem:mixed beam	!	!	!	!	!	!	!	!	!
8E-\L	8r	8r	8e-\	er-	8ee-\	er-	8gg\	er-	8r
!LO:SIC:s=8BB-/J:v	!	!	!LO:SIC:s=8B-\:v	!	!	!	!	!	!
8BB/J	8dd\	8ff\L	8B\	-go	8dd\	-go	8ff\	-go	8ff\L
8r	8ee-\L	8gg\	8r	.	8r	.	8r	.	8gg\
*	*	*	*	*	*	*	*	*ij	*
!LO:SIC:s=8BB-/:v	!	!	!LO:SIC:s=8B-\:v	!	!	!	!	!	!
8BB/	8dd\J	8ff\J	8B\	qvid	8dd\	qvid	8ff\	Qvid	8ff\J
!	!	!LO:LB:g=original	!	!	!	!	!	!	!LO:LB:g=original
=51	=51	=51	=51	=51	=51	=51	=51	=51	=51
!LO:TX:t=P:problem:mixed beam	!	!	!	!	!	!	!	!	!
8E-\L	8r	8r	8e-\	er-	8ee-\	er-	8gg\	er-	8r
!LO:SIC:s=8BB-/J:v	!	!	!LO:SIC:s=8B-\:v	!	!	!	!	!	!
8BB/J	8dd\L	8ff\L	8B\	-go	8dd\	-go	8ff\	-go	8ff\L
!	!	!	!LO:LB:g=original	!	!	!	!	!	!
8r	8ee-\	8gg\	8r	.	8r	.	8r	.	8gg\
*	*	*	*	*	*	*	*	*Xij	*
!LO:SIC:s=8BB-/:v	!	!	!LO:SIC:s=8B-\:v	!	!	!	!	!	!
8BB/	8dd\J	8ff\J	8B\	qvid	8dd\	qvid	8ff\	Qvid	8ff\J
!	!LO:LB:g=original	!	!	!	!	!	!	!	!
!LO:TX:t=P:problem:mixed beam	!	!	!	!	!	!	!	!	!
8E-\L	2r	2r	8e-\	er-	8ee-\	er-	8gg\	er-	2r
8A-X\	.	.	16G\	-go	16dd\	-go	16ff\	-go	.
.	.	.	16A-X\	de-	16cc\	de-	16ee-\	de-	.
!LO:SIC:s=8B-\:v	!	!	!LO:SIC:s=8.B-\:v	!	!LO:SIC:s=8.b-\:v	!	!	!	!
8B\	.	.	8.B\	-ci-	8.b\	-ci-	8.dd\	-ci-	.
!LO:SIC:s=8BB-/J:v	!	!	!	!	!	!	!	!	!
8BB/J	.	.	.	.	.	.	.	.	.
!	!	!	!LO:SIC:s=16BB-/:v	!	!	!	!	!	!
.	.	.	16BB/	-pe-	16a-X\	-pe-	16dd\	-pe-	.
!	!	!	!	!	!LO:LB:g=original	!	!LO:LB:g=original	!	!
=52	=52	=52	=52	=52	=52	=52	=52	=52	=52
!LO:TX:t=P:problem:mixed beam	!	!	!	!	!	!	!	!	!
8E-\L	1r	8ee-\L	4E-\	-ris	4g\	-ris	4ee-\	-ris	8ee-\L
!LO:SIC:s=8A-\:t=lub 8B-\:v	!	!	!	!	!	!	!	!	!
8A\	.	16ff\L	.	.	.	.	.	.	16ff\L
.	.	16gg\JJ	.	.	.	.	.	.	16gg\JJ
!LO:SIC:s=8B-\:v	!	!	!	!	!	!	!	!	!
8B\	.	8ff\L	4r	.	4r	.	4r	.	8ff\L
!LO:SIC:s=8BB-/J:v	!	!	!	!	!	!	!	!	!
8BB/J	.	16ee-\L	.	.	.	.	.	.	16ee-\L
.	.	16dd\JJ	.	.	.	.	.	.	16dd\JJ
8E-\L	.	4ee-\	2r	.	2r	.	2r	.	4ee-\
16B-X\L	.	.	.	.	.	.	.	.	.
16c\JJ	.	.	.	.	.	.	.	.	.
16B-\LL	.	4r	.	.	.	.	.	.	4r
16A-X\	.	.	.	.	.	.	.	.	.
16G\	.	.	.	.	.	.	.	.	.
16F\JJ	.	.	.	.	.	.	.	.	.
!LO:LB:g=original	!	!	!	!	!	!	!	!	!
=53	=53	=53	=53	=53	=53	=53	=53	=53	=53
!LO:TX:t=P:problem:mixed beam	!	!	!	!	!	!	!	!	!
8E-\L	8ee-\L	8gg\L	00r	.	00r	.	00r	.	8gg\L
8A-X\	16ff\L	16aa-X\L	.	.	.	.	.	.	16aa-X\L
!	!	!LO:SIC:s=16bb-\JJ:v	!	!	!	!	!	!	!LO:SIC:s=16bb-\JJ:v
.	16gg\JJ	16bb\JJ	.	.	.	.	.	.	16bb\JJ
!LO:SIC:s=8B-\:v	!	!	!	!	!	!	!	!	!
8B\	8ff\L	8aa-\L	.	.	.	.	.	.	8aa-\L
!LO:SIC:s=8BB-/J:v	!	!	!	!	!	!	!	!	!
8BB/J	16ee-\L	16gg\L	.	.	.	.	.	.	16gg\L
.	16dd\JJ	16ff\JJ	.	.	.	.	.	.	16ff\JJ
8E-\L	4ee-\	4gg\	.	.	.	.	.	.	4gg\
8E-\	.	.	.	.	.	.	.	.	.
8E-\	8r	8r	.	.	.	.	.	.	8r
8E-\J	16ee-\LL	16gg\LL	.	.	.	.	.	.	16gg\LL
.	16ff\JJ	16aa-X\JJ	.	.	.	.	.	.	16aa-X\JJ
=54	=54	=54	=54	=54	=54	=54	=54	=54	=54
!	!	!LO:SIC:s=16bb-\LL:v	!	!	!	!	!	!	!LO:SIC:s=16bb-\LL:v
8E-\L	16gg\LL	16bb\LL	.	.	.	.	.	.	16bb\LL
.	16ff\	16aa-X\	.	.	.	.	.	.	16aa-X\
8E-\	16ff\	16aa-\	.	.	.	.	.	.	16aa-\
!	!	!	!	!	!	!	!	!	!LO:TX:t=g
.	16ee-\JJ	16gg\JJ	.	.	.	.	.	.	16gg\JJ
!	!	!LO:SIC:s=16bb-\LL:v	!	!	!	!	!	!	!LO:SIC:s=16bb-\LL:v
8E-\	16gg\LL	16bb\LL	.	.	.	.	.	.	16bb\LL
.	16ff\	16aa-\	.	.	.	.	.	.	16aa-X\
8E-\J	16ff\	16aa-\	.	.	.	.	.	.	16aa-\
.	16ee-\JJ	16gg\JJ	.	.	.	.	.	.	16gg\JJ
!LO:TX:t=P:problem:mixed beam	!	!	!	!	!	!	!	!	!
8B-X\L	16ff\LL	16aa-\LL	.	.	.	.	.	.	16aa-\LL
.	16ee-\	16gg\	.	.	.	.	.	.	16gg\
!LO:SIC:s=8BB-/:v	!	!	!	!	!	!	!	!	!
8BB/	16ee-\	16gg\	.	.	.	.	.	.	16gg\
.	16dd\JJ	16ff\JJ	.	.	.	.	.	.	16ff\JJ
!LO:SIC:s=8BB-/:v	!	!	!	!	!	!	!	!	!
8BB/	16ff\LL	16aa-\LL	.	.	.	.	.	.	16aa-\LL
.	16ee-\	16gg\	.	.	.	.	.	.	16gg\
!LO:SIC:s=8BB-/J:v	!	!	!	!	!	!	!	!	!
8BB/J	16ee-\	16gg\	.	.	.	.	.	.	16gg\
.	16dd\JJ	16ff\JJ	.	.	.	.	.	.	16ff\JJ
!	!	!LO:LB:g=original	!	!	!	!	!	!	!
=55	=55	=55	=55	=55	=55	=55	=55	=55	=55
!	!	!LO:SIC:s=16bb-\LL:v	!	!	!	!	!	!	!LO:SIC:s=16bb-\LL:v
8E-\L	16gg\LL	16bb\LL	.	.	.	.	.	.	16bb\LL
.	16ff\	16aa-X\	.	.	.	.	.	.	16aa-X\
8E-\	16ff\	16aa-\	.	.	.	.	.	.	16aa-\
.	16ee-\JJ	16gg\JJ	.	.	.	.	.	.	16gg\JJ
!	!	!LO:SIC:s=16bb-\LL:v	!	!	!	!	!	!	!LO:SIC:s=16bb-\LL:v
8E-\	16gg\LL	16bb\LL	.	.	.	.	.	.	16bb\LL
.	16ff\	16aa-\	.	.	.	.	.	.	16aa-X\
8E-\J	16ff\	16aa-\	.	.	.	.	.	.	16aa-\
.	16ee-\JJ	16gg\JJ	.	.	.	.	.	.	16gg\JJ
!	!LO:LB:g=original	!	!	!	!	!	!	!	!LO:LB:g=original
!LO:SIC:s=8B-\L:v	!	!	!	!	!	!	!	!	!
!LO:TX:t=P:problem:mixed beam	!	!	!	!	!	!	!	!	!
8B\L	16ff\LL	16aa-\LL	.	.	.	.	.	.	16aa-\LL
.	16ee-\	16gg\	.	.	.	.	.	.	16gg\
!LO:SIC:s=8BB-/:v	!	!	!	!	!	!	!	!	!
8BB/	16ee-\	16gg\	.	.	.	.	.	.	16gg\
.	16dd\JJ	16ff\JJ	.	.	.	.	.	.	16ff\JJ
!LO:SIC:s=8BB-/:v	!	!	!	!	!	!	!	!	!
8BB/	16ff\LL	16aa-\LL	.	.	.	.	.	.	16aa-\LL
.	16ee-\	16gg\	.	.	.	.	.	.	16gg\
!LO:SIC:s=8BB-/J:v	!	!	!	!	!	!	!	!	!
8BB/J	16ee-\	16gg\	.	.	.	.	.	.	16gg\
.	16dd\JJ	16ff\JJ	.	.	.	.	.	.	16ff\JJ
=56	=56	=56	=56	=56	=56	=56	=56	=56	=56
8E-\L	8ee-\L	8gg\L	.	.	.	.	.	.	8gg\L
8G\	16dd\L	16ff\L	.	.	.	.	.	.	16ff\L
.	16ee-\JJ	16gg\JJ	.	.	.	.	.	.	16gg\JJ
!	!	!LO:SIC:s=8aa-\L:v	!	!	!	!	!	!	!LO:SIC:s=8aa-\L:v
8A-X\	8ff\L	8aa\L	.	.	.	.	.	.	8aa\L
8An\J	8ee-\J	8gg\J	.	.	.	.	.	.	8gg\J
8B-X\L	4dd\	4ff\	.	.	.	.	.	.	4ff\
8B-\	.	.	.	.	.	.	.	.	.
8B-\	8r	8r	.	.	.	.	.	.	8r
8B-\J	8dd\	8ff\	.	.	.	.	.	.	8ff\
=57	=57	=57	=57	=57	=57	=57	=57	=57	=57
!LO:SIC:s=8B-\L:v	!	!	!	!	!	!	!	!	!
8B\L	4ee-\	4gg\	00r	.	0r	.	0r	.	4gg\
!LO:SIC:s=8B-\:v	!	!	!	!	!	!	!	!	!
8B\	.	.	.	.	.	.	.	.	.
!LO:SIC:s=8B-\:v	!	!	!	!	!	!	!	!	!
8B\	8r	8r	.	.	.	.	.	.	8r
!LO:SIC:s=8B-\J:v	!	!	!	!	!	!	!	!	!
8B\J	8ee-\	8gg\	.	.	.	.	.	.	8gg\
!LO:SIC:s=8B-\L:v	!	!	!	!	!	!	!	!	!
8B\L	4ff\	4aa-X\	.	.	.	.	.	.	4aa-X\
!LO:SIC:s=8B-\:v	!	!	!	!	!	!	!	!	!
8B\	.	.	.	.	.	.	.	.	.
!LO:SIC:s=8B-\:v	!	!	!	!	!	!	!	!	!
8B\	8r	8r	.	.	.	.	.	.	8r
!LO:SIC:s=8B-\J:v	!	!	!	!	!	!	!	!	!
8B\J	8ff\	8aa-\	.	.	.	.	.	.	8aa-\
=58	=58	=58	=58	=58	=58	=58	=58	=58	=58
!LO:TX:t=P:problem:mixed beam	!	!	!	!	!	!	!	!	!
8E-\L	8ee-\L	8gg\L	.	.	.	.	.	.	8gg\L
8A-X\	16dd\L	16ff\L	.	.	.	.	.	.	16ff\L
.	16cc\JJ	16ee-\JJ	.	.	.	.	.	.	16ee-\JJ
!LO:SIC:s=8B-\:v	!LO:SIC:s=8.b-/L:v	!	!	!	!	!	!	!	!
8B\	8.b/L	8.dd\L	.	.	.	.	.	.	8.dd\L
!LO:SIC:s=8BB-/J:v	!	!	!	!	!	!	!	!	!
8BB/J	.	.	.	.	.	.	.	.	.
!	!LO:SIC:s=16a-/Jk:v	!	!	!	!	!	!	!	!
.	16a/Jk	16dd\Jk	.	.	.	.	.	.	16dd\Jk
!LO:LB:g=original	!	!LO:LB:g=original	!	!	!	!	!	!	!
!LO:TX:t=P:problem:mixed beam	!LO:TX:t=P:problem:mixed beam	!	!	!	!	!	!	!	!
8E-\L	16g/LL	16ee-\LL	.	.	.	.	.	.	16ee-\LL
!	!	!	!	!	!	!	!	!	!LO:SIC:s=16aa-\JJ:v
.	16ff\JJ	16aa-X\JJ	.	.	.	.	.	.	16aa\JJ
8A-\	24ee-\LL	24gg\LL	.	.	.	.	.	.	24gg\LL
.	24dd\	24ff\	.	.	.	.	.	.	24ff\
.	24cc\JJ	24ee-\JJ	.	.	.	.	.	.	24ee-\JJ
!LO:SIC:s=8B-\:v	!	!	!	!	!	!	!	!	!LO:TX:t=P:problem:brak kreski taktowej po 4ffM\
8B\	4dd\	4ffT\	.	.	.	.	.	.	4ffM\
!LO:SIC:s=8BB-/J:v	!	!	!	!	!	!	!	!	!
8BB/J	.	.	.	.	.	.	.	.	.
!	!LO:LB:g=original	!	!	!	!	!	!	!	!
=59	=59	=59	=59	=59	=59	=59	=59	=59	=59-
!	!LO:SIC:s=4b-	!	!	!	!	!	!	!	!
8E-\L	4bn\	4ee-\	.	.	16g/LL	So-	16b-\LL	So-	4ee-\
.	.	.	.	.	16f/JJ	.	16a-X\JJ	.	.
8E-\	.	.	.	.	16e-/LL	-li	16g\LL	-li	.
.	.	.	.	.	16f/JJ	.	16a-\JJ	.	.
8E-\	4r	4r	.	.	8g\	De-	8b-\	De-	4r
8E-\J	.	.	.	.	8a-X\	-o	8cc\	-o	.
8E-\L	2r	2r	.	.	16g/LL	ad-	16b-\LL	ad-	2r
.	.	.	.	.	16f/JJ	.	16a-X\JJ	.	.
!	!	!	!	!	!	!LO:SIC:l:s=hae:v	!	!	!
8E-\	.	.	.	.	16e-/LL	-he-	16g\LL	-hae-	.
.	.	.	.	.	16f/JJ	.	16a-\JJ	.	.
8E-\	.	.	.	.	8g\	-re-	8b-\	-re-	.
8E-\J	.	.	.	.	8a-X\	-re	8cc\	-re	.
=60	=60	=60	=60	=60	=60	=60	=60	=60	=60
8E-\L	2r	2r	.	.	8g\	ti-	8b-\	ti-	2r
8E-\	.	.	.	.	8g\	-bi	8ee-\	-bi	.
8D\	.	.	.	.	8a-X\	ti-	8ff\	ti-	.
8BB-X\J	.	.	.	.	8f/	-bi	8a-X\	-bi	.
8E-\L	4r	4r	.	.	8.e-/	bo-	8.g\	bo-	4r
8BB-\J	.	.	.	.	.	.	.	.	.
.	.	.	.	.	16d/	-num	16f\	-num	.
!	!	!	!	!	!LO:LB:g=original	!	!LO:LB:g=original	!	!
4E-\	8r	8r	.	.	4e-/	est	4g\	est	8r
.	16ee-\LL	16gg\LL	.	.	.	.	.	.	16gg\LL
.	16ff\JJ	16aa-X\JJ	.	.	.	.	.	.	16aa-X\JJ
=61	=61	=61	=61	=61	=61	=61	=61	=61	=61
!	!	!LO:SIC:s=16bb-\LL:v	!	!	!	!	!	!	!LO:SIC:s=16bb-\LL:v
8E-\L	16gg\LL	16bb\LL	00r	.	00r	.	00r	.	16bb\LL
!	!	!LO:SIC:s=16aa-\:v	!	!	!	!	!	!	!
.	16ff\	16aa\	.	.	.	.	.	.	16aa-X\
!	!	!LO:SIC:s=16aa-\:v	!	!	!	!	!	!	!
8E-\	16ff\	16aa\	.	.	.	.	.	.	16aa-\
.	16ee-\JJ	16gg\JJ	.	.	.	.	.	.	16gg\JJ
!	!	!LO:SIC:s=16bb-\LL:v	!	!	!	!	!	!	!LO:SIC:s=16bb-\LL:v
8E-\	16gg\LL	16bb\LL	.	.	.	.	.	.	16bb\LL
!	!	!LO:SIC:s=16aa-\:v	!	!	!	!	!	!	!
.	16ff\	16aa\	.	.	.	.	.	.	16aa-\
!	!	!LO:SIC:s=16aa-\:v	!	!	!	!	!	!	!
8E-\J	16ff\	16aa\	.	.	.	.	.	.	16aa-\
.	16ee-\JJ	16gg\JJ	.	.	.	.	.	.	16gg\JJ
!	!	!	!	!	!	!	!	!	!LO:LB:g=original
!	!	!LO:SIC:s=16aa-\LL:v	!	!	!	!	!	!	!
8B-X\L	16ff\LL	16aa\LL	.	.	.	.	.	.	16aa-X\LL
.	16ee-\	16gg\	.	.	.	.	.	.	16gg\
8B-\	16ee-\	16gg\	.	.	.	.	.	.	16gg\
.	16dd\JJ	16ff\JJ	.	.	.	.	.	.	16ff\JJ
!	!	!LO:SIC:s=16aa-\LL:v	!	!	!	!	!	!	!
8B-\	16ff\LL	16aa\LL	.	.	.	.	.	.	16aa-\LL
.	16ee-\	16gg\	.	.	.	.	.	.	16gg\
8B-\J	16ee-\	16gg\	.	.	.	.	.	.	16gg\
!	!	!	!	!	!	!	!	!	!LO:TX:t=P:problem:brak kreski taktowej
.	16dd\JJ	16ff\JJ	.	.	.	.	.	.	16ff\JJ
=62	=62	=62	=62	=62	=62	=62	=62	=62	=62-
!	!	!LO:SIC:s=16bb-\LL:v	!	!	!	!	!	!	!LO:SIC:s=16bb-\LL:v
8E-\L	16gg\LL	16bb\LL	.	.	.	.	.	.	16bb\LL
!	!	!LO:SIC:s=16aa-\:v	!	!	!	!	!	!	!
.	16ff\	16aa\	.	.	.	.	.	.	16aa-X\
!	!	!LO:SIC:s=16aa-\:v	!	!	!	!	!	!	!
8E-\	16ff\	16aa\	.	.	.	.	.	.	16aa-\
.	16ee-\JJ	16gg\JJ	.	.	.	.	.	.	16gg\JJ
!	!	!LO:SIC:s=16bb-\LL:v	!	!	!	!	!	!	!LO:SIC:s=16bb-\LL:v
8E-\	16gg\LL	16bb\LL	.	.	.	.	.	.	16bb\LL
!	!	!LO:SIC:s=16aa-\:v	!	!	!	!	!	!	!
.	16ff\	16aa\	.	.	.	.	.	.	16aa-\
!	!	!LO:SIC:s=16aa-\:v	!	!	!	!	!	!	!
8E-\J	16ff\	16aa\	.	.	.	.	.	.	16aa-\
.	16ee-\JJ	16gg\JJ	.	.	.	.	.	.	16gg\JJ
!	!	!LO:LB:g=original	!	!	!	!	!	!	!
!	!	!LO:SIC:s=16aa-\LL:v	!	!	!	!	!	!	!
8B-X\L	16ff\LL	16aa\LL	.	.	.	.	.	.	16aa-\LL
.	16ee-\	16gg\	.	.	.	.	.	.	16gg\
8B-\	16ee-\	16gg\	.	.	.	.	.	.	16gg\
.	16dd\JJ	16ff\JJ	.	.	.	.	.	.	16ff\JJ
!	!	!LO:SIC:s=16aa-\LL:v	!	!	!	!	!	!	!
8B-\	16ff\LL	16aa\LL	.	.	.	.	.	.	16aa-\LL
.	16ee-\	16gg\	.	.	.	.	.	.	16gg\
8B-\J	16ee-\	16gg\	.	.	.	.	.	.	16gg\
.	16dd\JJ	16ff\JJ	.	.	.	.	.	.	16ff\JJ
!	!LO:LB:g=original	!	!	!	!	!	!	!	!
=63	=63	=63	=63	=63	=63	=63	=63	=63	=63
8E-\L	8ee-\L	8gg\L	.	.	.	.	.	.	8gg\L
8G\	16dd\L	16ff\L	.	.	.	.	.	.	16ff\L
.	16ee-\JJ	16gg\JJ	.	.	.	.	.	.	16gg\JJ
!	!	!LO:SIC:s=8aa-\L:v	!	!	!	!	!	!	!LO:SIC:s=8aa-\L:v
8A-X\	8ff\L	8aa\L	.	.	.	.	.	.	8aa\L
8An\J	8ee-\J	8gg\J	.	.	.	.	.	.	8gg\J
!LO:LB:g=original	!	!	!	!	!	!	!	!	!
8B-X\L	4dd\	4ff\	.	.	.	.	.	.	4ff\
8B-\	.	.	.	.	.	.	.	.	.
8B-\	8r	8r	.	.	.	.	.	.	8r
8B-\J	8dd\	8ff\	.	.	.	.	.	.	8ff\
=64	=64	=64	=64	=64	=64	=64	=64	=64	=64
!LO:SIC:s=8B-\L:v	!	!	!	!	!	!	!	!	!
8B\L	4ee-\	4gg\	.	.	.	.	.	.	4gg\
!LO:SIC:s=8B-\:v	!	!	!	!	!	!	!	!	!
8B\	.	.	.	.	.	.	.	.	.
!LO:SIC:s=8B-\:v	!	!	!	!	!	!	!	!	!
8B\	8r	8r	.	.	.	.	.	.	8r
!LO:SIC:s=8B-\J:v	!	!	!	!	!	!	!	!	!
8B\J	8ee-\	8gg\	.	.	.	.	.	.	8gg\
!LO:SIC:s=8B-\L:v	!	!LO:SIC:s=4aa-\:v	!	!	!	!	!	!	!LO:SIC:s=4aa-\:v
8B\L	4ff\	4aa\	.	.	.	.	.	.	4aa\
!LO:SIC:s=8B-\:v	!	!	!	!	!	!	!	!	!
8B\	.	.	.	.	.	.	.	.	.
!LO:SIC:s=8B-\:v	!	!	!	!	!	!	!	!	!
8B\	8r	8r	.	.	.	.	.	.	8r
!LO:SIC:s=8B-\J:v	!	!LO:SIC:s=8aa-\:v	!	!	!	!	!	!	!LO:SIC:s=8aa-\:v
8B\J	8ff\	8aa\	.	.	.	.	.	.	8aa\
=65	=65	=65	=65	=65	=65	=65	=65	=65	=65
!LO:TX:t=P:problem:mixed beam	!	!	!	!	!	!	!	!	!
8E-\L	8ee-\L	8gg\L	00r	.	1r	.	1r	.	8gg\L
8A-X\	16dd\L	16ff\L	.	.	.	.	.	.	16ff\L
.	16cc\JJ	16ee-\JJ	.	.	.	.	.	.	16ee-\JJ
!LO:SIC:s=8B-\:v	!LO:SIC:s=8.b-\L:v	!	!	!	!	!	!	!	!
8B\	8.b\L	8.dd\L	.	.	.	.	.	.	8.dd\L
!LO:SIC:s=8BB-/J:v	!	!	!	!	!	!	!	!	!
8BB/J	.	.	.	.	.	.	.	.	.
!	!LO:SIC:s=16b-\Jk:v	!	!	!	!	!	!	!	!
.	16b\Jk	16dd\Jk	.	.	.	.	.	.	16dd\Jk
!LO:TX:t=P:problem:mixed beam	!LO:SIC:s=16b-\LL:v	!	!	!	!	!	!	!	!
8E-\L	16b\LL	16dd\LL	.	.	.	.	.	.	16ee-\LL
!	!	!LO:SIC:s=16aa-\JJ:v	!	!	!	!	!	!	!LO:SIC:s=16aa-\JJ:v
.	16ff\JJ	16aa\JJ	.	.	.	.	.	.	16aa\JJ
8A-\	24ee-\LL	24gg\LL	.	.	.	.	.	.	24gg\LL
.	24dd\	24ff\	.	.	.	.	.	.	24ff\
.	24cc\JJ	24ee-\JJ	.	.	.	.	.	.	24ee-\JJ
!LO:SIC:s=8B-\:v	!	!	!	!	!	!	!	!	!
!	!	!	!	!	!	!	!	!	!LO:TX:a:t=P:problem:brak kreski taktowej
8B\	4dd\	4ffT\	.	.	.	.	.	.	4ffM\
!LO:SIC:s=8BB-/J:v	!	!	!	!	!	!	!	!	!
8BB/J	.	.	.	.	.	.	.	.	.
!	!	!LO:LB:g=original	!	!	!	!	!	!	!LO:LB:g=original
=66	=66	=66	=66	=66	=66	=66	=66	=66	=66-
!	!LO:SIC:s=4b-\:v	!	!	!	!	!	!	!	!
8E-\L	4b\	4ee-\	.	.	16g/LL	So-	16b-\LL	So-	4ee-\
.	.	.	.	.	16f/JJ	.	16a-X\JJ	.	.
8E-\	.	.	.	.	16e-/LL	-li	16g\LL	-li	.
.	.	.	.	.	16f/JJ	.	16a-\JJ	.	.
8E-\	4r	4r	.	.	8g\	De-	8b-\	De-	4r
8E-\J	.	.	.	.	8a-X\	-o	8cc\	-o	.
8E-\L	2r	2r	.	.	16g/LL	ad-	16b-\LL	ad-	2r
.	.	.	.	.	16f/JJ	.	16a-X\JJ	.	.
!	!	!	!	!	!	!	!	!LO:SIC:l:s=hae:v	!
8E-\	.	.	.	.	16e-/LL	-hae-	16g\LL	-he-	.
.	.	.	.	.	16f/JJ	.	16a-\JJ	.	.
8E-\	.	.	.	.	8g\	-re-	8b-\	-re-	.
8E-\J	.	.	.	.	8a-X\	-re	8cc\	-re	.
=67	=67	=67	=67	=67	=67	=67	=67	=67	=67
8E-/L	00r	00r	.	.	8g\	ti-	8b-\	ti-	00r
8E-/	.	.	.	.	8g\	-bi	8ee-\	-bi	.
8D/	.	.	.	.	8a-X\	ti-	8ff\	ti-	.
8BB-X/J	.	.	.	.	8f/	-bi	8a-X\	-bi	.
8E-/L	.	.	.	.	8.e-/	bo-	8.g\	bo-	.
8BB-/J	.	.	.	.	.	.	.	.	.
.	.	.	.	.	16d/	-num	16f\	-num	.
!	!	!	!	!	!	!	!LO:TX:a:t=P:problem:"est" zapisane ręką głównego skryptora prawdopodobnie niewyraźne, na wyrazie zapisane "est" inną ręką	!	!
4E-\	.	.	.	.	4e-/	est	4g\	est	.
!	!	!	!	!	!LO:LB:g=original	!	!LO:LB:g=original	!	!
=68	=68	=68	=68	=68	=68	=68	=68	=68	=68
8E-\L	.	.	.	.	8g/	hic	8b-\	Hic	.
8F\	.	.	.	.	8g/	est	8b-\	est	.
8G\	.	.	.	.	8g/	ve-	8b-\	ve-	.
8E-\J	.	.	.	.	16f/LL	-rum	16a-X\LL	-rum	.
.	.	.	.	.	16g/JJ	.	16b-\JJ	.	.
!LO:PB:g=original	!	!	!	!	!	!	!	!	!
!LO:SIC:s=8A-\L:v	!	!	!	!	!	!	!	!	!
8A\L	.	.	.	.	8.a-X\	gau-	8.cc\	gau-	.
8E-\J	.	.	.	.	.	.	.	.	.
.	.	.	.	.	16g\	-di-	16b-\	-di-	.
!LO:SIC:s=4A-\:v	!	!	!	!	!	!	!	!	!
4A\	.	.	.	.	4a-\	-um	4cc\	-um	.
=69	=69	=69	=69	=69	=69	=69	=69	=69	=69
8E-\L	.	.	0r	.	8g\	Hic	8b-\	Hic	.
8F\	.	.	.	.	8g\	est	8b-\	est	.
8G\	.	.	.	.	8g\	ho-	8b-\	ho-	.
8E-\J	.	.	.	.	8g\	-nor	16a-X\LL	-nor	.
.	.	.	.	.	.	.	16b-\JJ	.	.
8A-X\L	.	.	.	.	8.a-X\	men-	8.cc\	men-	.
!LO:SIC:s=8B-\:v	!	!	!	!	!	!	!	!	!
8B\	.	.	.	.	.	.	.	.	.
.	.	.	.	.	16g\	-ti-	16b-\	-ti-	.
8c\	.	.	.	.	4a-\	-um	4cc\	-um	.
8A-\J	.	.	.	.	.	.	.	.	.
=70	=70	=70	=70	=70	=70	=70	=70	=70	=70
!LO:SIC:s=8BB-/L:v	!	!	!	!	!	!	!	!	!
8BB/L	.	.	.	.	8dd\	hic	8ff\	Hic	.
8C/	.	.	.	.	8dd\	te	8ff\	te	.
8D/	.	.	.	.	8dd\	va-	8ff\	va-	.
!LO:SIC:s=8BB-/J:v	!	!	!	!	!	!	!	!	!
8BB/J	.	.	.	.	8dd\	-let	8ff\	-let	.
!	!	!	!	!	!LO:LB:g=original	!	!LO:LB:g=original	!	!
4E-\	.	.	.	.	16ee-\	So-	16gg\	So-	.
.	.	.	.	.	16dd\	-lus	16ff\	-lus	.
.	.	.	.	.	16cc\	Sa-	16ee-\	Sa-	.
!	!	!	!	!	!	!LO:SIC:l:s=-ti-:v	!	!LO:SIC:l:s=-ti-:v	!
.	.	.	.	.	16dd\	-ci-	16ff\	-ci-	.
4r	.	.	.	.	8ee-\	-a-	8gg\	-a-	.
.	.	.	.	.	8cc\	-re.	8ee-\	-re	.
=71	=71	=71	=71	=71	=71	=71	=71	=71	=71
!LO:SIC:s=8BB-/L:v	!	!	!	!	!	!	!	!	!
8BB/L	00r	00r	1rG	.	8dd\	Hic	8ff\	Hic	00r
8C/	.	.	.	.	8dd\	te	8ff\	te	.
8D/	.	.	.	.	8dd\	pot-	8ff\	po-	.
!LO:SIC:s=8BB-/J:v	!	!	!	!	!	!	!	!	!
8BB/J	.	.	.	.	8dd\	-est	16ff\	-test	.
.	.	.	.	.	.	.	16ff\	ae-	.
4E-\	.	.	.	.	16ee-\	ae-	16gg\	-ter-	.
.	.	.	.	.	16dd\	-ter-	16ff\	-num	.
.	.	.	.	.	16cc\	-num	16ee-\	.	.
.	.	.	.	.	16dd\	be-	16ff\	be-	.
4r	.	.	.	.	8ee-\	-a-	8gg\	-a-	.
.	.	.	.	.	8cc\	-re	8ee-\	-re	.
!	!	!	!	!	!	!	!LO:LB:g=original	!	!
=72	=72	=72	=72	=72	=72	=72	=72	=72	=72
2r	.	.	2r	.	8dd\L	In	8ff\L	In	.
.	.	.	.	.	8cc\	.	8ee-\	.	.
!	!	!	!	!	!LO:SIC:s=8b-:v	!	!	!	!
.	.	.	.	.	8b\	.	8dd\	.	.
.	.	.	.	.	8a-X\J	.	8cc\J	.	.
!	!	!	!	!	!LO:LB:g=original	!	!	!	!
8r	.	.	8r	.	4.g/	il-	4.b-w\	il-	.
8BB-X/L	.	.	8BB-X/	in	.	.	.	.	.
!	!	!	!	!LO:SIC:l:s=il-:v	!	!	!	!	!
8C/	.	.	8C/	jl-	.	.	.	.	.
8D/J	.	.	8D/	-lo	8f/	-lo	8a-X\	-lo	.
!LO:LB:g=original	!	!	!	!	!	!	!	!	!
=73	=73	=73	=73	=73	=73	=73	=73	=73	=73
4E-\	.	.	4E-\	Se-	16e-/LL	Se-	16g\LL	Se-	.
.	.	.	.	.	16d/	.	16f\	.	.
.	.	.	.	.	16e-/	.	16g\	.	.
!	!	!	!	!	!	!	!LO:SIC:s=16a-\JJ:v	!	!
.	.	.	.	.	16f/JJ	.	16a\JJ	.	.
8E-\L	.	.	8E-\	-cu-	8g\	-cu-	8b-\	-cu-	.
8F\J	.	.	8F\	-re	8a-X\	-re	8cc\	-re	.
!	!	!	!LO:LB:g=original	!	!	!	!	!	!
!LO:TX:t=P:problem:mixed beam	!	!	!	!	!	!	!	!	!
8G\L	.	.	8G\L	qvi-	8g/L	qvi-	8b-\L	qvi-	.
!	!	!	!LO:SIC:s=8A-\J:v	!	!	!	!	!	!
8A-X\	.	.	8A\J	.	16f/L	.	16a-X\L	.	.
.	.	.	.	.	16e-/JJ	.	16g\JJ	.	.
!	!	!	!LO:SIC:s=8B-\L:v	!	!	!	!	!	!
!LO:SIC:s=8B-\:v	!	!	!LO:TX:t=P:problem:mixed beam	!	!	!	!	!	!
8B\	.	.	8B\L	-es-	4d/	-es-	4f/	-es-	.
!LO:SIC:s=8BB-/J:v	!	!	!LO:SIC:s=8BB-/J	!	!	!	!	!	!
8BB/J	.	.	8BB/J	.	.	.	.	.	.
=74	=74	=74	=74	=74	=74	=74	=74	=74	=74
8E-\L	.	.	4E-\	-ce	4e-/	-ce	4e-/	-ce	.
8F\J	.	.	.	.	.	.	.	.	.
16G\LL	.	.	4r	.	4r	.	4r	.	.
16F\	.	.	.	.	.	.	.	.	.
16E-\	.	.	.	.	.	.	.	.	.
16D\JJ	.	.	.	.	.	.	.	.	.
8E-\L	.	.	2r	.	8g\	Hic	8b-\	Hic	.
8F\	.	.	.	.	8g\	est	8b-\	est	.
8G\	.	.	.	.	8g\	ve-	8b-\	ve-	.
8E-\J	.	.	.	.	16f\LL	-rum	16a-X\LL	-rum	.
!	!	!	!	!	!	!	!LO:TX:a:t=P:problem:brak kreski taktowej (musi być widoczna, aby widoczna była zmiana znaków przy kluczu)	!	!
.	.	.	.	.	16g\JJ	.	16b-\JJ	.	.
!	!LO:LB:g=original	!	!	!	!	!	!	!	!
=75	=75	=75	=75	=75	=75	=75	=75	=75	=75
*	*	*	*	*	*	*	*kcancel	*	*
*	*	*	*	*	*	*	*k[e-bn]	*	*
8A-X\L	00r	00r	00r	.	8.a-X\	gau-	8.cc\	gau-	00r
8E-\J	.	.	.	.	.	.	.	.	.
.	.	.	.	.	16g\	-di-	16b-y\	-di-	.
!	!	!	!	!	!	!	!LO:PB:g=original	!	!
!	!	!	!	!	!	!	!LO:TX:a:t=P:problem:zmiana znaków przy kluczu dopiero od nowej linii, przed 4cc\, jednak tu się nie wyświetlają	!	!
4A-\	.	.	.	.	4a-\	-um	4cc\	-um	.
!	!	!	!	!	!	!	!LO:SIC:s=8b-\:v	!	!
8E-\L	.	.	.	.	8g\	hic	8bny\	Hic	.
!	!	!	!	!	!	!	!LO:SIC:s=8b-\:v	!	!
8F\	.	.	.	.	8g\	est	8b\	est	.
!	!	!	!	!	!LO:LB:g=original	!	!	!	!
!	!	!	!	!	!LO:TX:t=P:problem:do słów "hic te" po "saciare" tekst pisany inną ręką na innym papierze	!	!LO:SIC:s=8b-\:v	!	!
8G\	.	.	.	.	8g\	ho-	8b\	ho-	.
!	!	!	!	!	!	!	!LO:SIC:s=8b-\:v	!	!
8E-\J	.	.	.	.	16f\LL	-nor	8b\	-nor	.
.	.	.	.	.	16g\JJ	.	.	.	.
=76	=76	=76	=76	=76	=76	=76	=76	=76	=76
!	!	!	!	!	!LO:SIC:s=8.a-	!	!	!	!
8A-X\L	.	.	.	.	8.a\	men-	8.cc\	men-	.
8E-\J	.	.	.	.	.	.	.	.	.
!	!	!	!	!	!	!	!LO:SIC:s=16b-\:v	!	!
.	.	.	.	.	16g\	-ti-	16b\	-ti-	.
!	!	!	!	!	!LO:SIC:s=4a-	!	!	!	!
4A-\	.	.	.	.	4a\	-um,	4cc\	-um	.
!LO:SIC:s=8BB-/L:v	!	!	!	!	!	!	!	!	!
8BB/L	.	.	.	.	8dd\	hic	8ff\	Hic	.
8C/	.	.	.	.	8dd\	te	8ff\	te	.
8D/	.	.	.	.	8dd\	va-	8ff\	po-	.
!LO:SIC:s=8BB-/J:v	!	!	!	!	!	!	!	!	!
!	!	!	!	!	!LO:TX:a:t=P:problem:niewidoczna kreska taktowa, ale bez niej nie wyświetla się zmiana kolejności znaków przy kluczu	!	!	!	!
8BB/J	.	.	.	.	8dd\	-let	8ff\	-test	.
=77	=77	=77	=77	=77	=77	=77	=77	=77	=77
*	*	*	*	*	*k[e-bn]	*	*	*	*
!	!	!	!	!	!LO:TX:a:t=P:problem:zmiana kolejności znaków przy kluczu dopiero od nowej linii	!	!	!	!
4E-\	.	.	.	.	16ee-\	so-	16gg\	So-	.
.	.	.	.	.	16dd\	-lus	16ff\	-lus	.
.	.	.	.	.	16cc\	sa-	16ee-\	Sa-	.
.	.	.	.	.	16dd\	-ci-	16ff\	-ti-	.
4r	.	.	.	.	8ee-\	-a-	8gg\	-a-	.
.	.	.	.	.	8cc\	-re	8ee-\	-re	.
!LO:LB:g=original	!	!	!	!	!	!	!LO:LB:g=original	!	!
!LO:SIC:s=8BB-/L:v	!	!	!	!	!	!	!	!	!
!	!	!	!	!	!	!	!LO:TX:a:t=P:problem:pod nutami skreślony tekst "-are Hic te potest eternum beare", pod nim tekst zapisany właściwie	!	!
8BB/L	.	.	.	.	8dd\	hic	8ff\	Hic	.
!	!	!	!	!	!	!	!LO:TX:a:t=P:problem:po nucie skreślona kreska taktowa	!	!
8C/	.	.	.	.	8dd\	te	8ff\	te	.
!	!	!	!	!	!LO:PB:g=original	!	!	!	!
8D/	.	.	.	.	8dd\	pot-	8ff\	po-	.
!LO:SIC:s=8BB-/J:v	!	!	!	!	!	!	!	!	!
8BB/J	.	.	.	.	8dd\	-est	16ff\	-test	.
!	!	!	!	!	!	!	!	!LO:SIC:l:s=ae-:v	!
.	.	.	.	.	.	.	16ff\	e-	.
=78	=78	=78	=78	=78	=78	=78	=78	=78	=78
!	!	!	!	!	!	!LO:SIC:l:s=ae:v	!	!	!
4E-\	.	.	.	.	16ee-\	e-	16gg\	-ter-	.
.	.	.	.	.	16dd\	-ter-	16ff\	-num	.
.	.	.	.	.	16cc\	-num	16ee-\	.	.
.	.	.	.	.	16dd\	be-	16ff\	be-	.
4r	.	.	.	.	8ee-\	-a-	8gg\	-a-	.
.	.	.	.	.	8cc\	-re	8ee-\	-re	.
2r	.	.	.	.	8dd\L	In	8ff\L	In	.
.	.	.	.	.	8cc\	.	8ee-\	.	.
.	.	.	.	.	8b\	.	8dd\	.	.
.	.	.	.	.	8a-X\J	.	8cc\J	.	.
=79	=79	=79	=79	=79	=79	=79	=79	=79	=79
!	!	!	!	!	!	!	!LO:SIC:s=4.b-\:v	!	!
!	!LO:TX:b:t=verte	!	!	!	!	!	!	!	!LO:TX:a:t=P:problem:fermata nie wyświetla się
8r	00r;	0r;	8r	.	4.g/	il-	4.b\	il-	0r;
!	!	!	!LO:SIC:s=8BB-/:v	!	!	!	!	!	!
8BB-X/L	.	.	8BB/	in	.	.	.	.	.
8C/	.	.	8C/	il-	.	.	.	.	.
8D/J	.	.	8D/	-lo	8f/	-lo	8a-X\	-lo	.
!	!	!	!	!	!	!	!LO:LB:g=original	!	!
4E-\	.	.	4E-\	Se-	16e-/LL	Se-	16g\LL	Se-	.
.	.	.	.	.	16d/	.	16f\	.	.
.	.	.	.	.	16e-/	.	16g\	.	.
.	.	.	.	.	16f/JJ	.	16a-\JJ	.	.
!	!	!	!	!	!	!	!LO:SIC:s=8b-\:v	!	!
8E-\L	.	.	8E-\	-cu-	8g\	-cu-	8b\	-cu-	.
8F\J	.	.	8F\	-re	8a-X\	-re	8cc\	-re	.
!	!	!	!	!	!LO:LB:g=original	!	!	!	!
=80	=80	=80	=80	=80	=80	=80	=80	=80	=80
!LO:TX:t=P:problem:mixed beam	!	!	!	!	!	!	!LO:SIC:s=8b-\L:v	!	!
8G\L	.	.	8G\L	qvi-	8g/L	qvi-	8b\L	qvi-	.
!LO:SIC:s=8A-\:v	!	!	!LO:SIC:s=8A-\J:v	!	!	!	!	!	!
8A\	.	.	8A\J	.	16f/L	.	16a-X\L	.	.
.	.	.	.	.	16e-/JJ	.	16g\JJ	.	.
!	!	!	!LO:SIC:s=8B-	!	!	!	!	!	!
!LO:SIC:s=8B-\:v	!	!	!LO:TX:t=P:problem:mixed beam	!	!	!	!	!	!
8B\	.	.	8B\L	-es-	4d/	-es-	4f/	-es-	.
!LO:SIC:s=8BB-/J:v	!	!	!LO:SIC:s=8BB-	!	!	!	!	!	!
8BB/J	.	.	8BB/J	.	.	.	.	.	.
8E-\L	.	.	4E-\	-ce	8e-/	-ce	8e-/	-ce	.
!LO:SIC:s=8A-\J:v	!	!	!	!	!	!	!	!	!
8A\J	.	.	.	.	8g/	qvi-	8ee-;\	qvi-	.
!LO:SIC:s=4B-;\:v	!	!	!	!	!	!	!	!	!
4B;\	.	.	4r;	.	4f;/	-es-	4ddW\	-es-	.
=81	=81	=81	=81	=81	=81	=81	=81	=81	=81
!	!	!LO:TX:b:t=verte	!	!	!LO:TX:a:t=P:problem:fermata dopisana inną ręką	!	!	!	!
8E-\L	.	1ree	00r	.	4g;\	-ce	4ee-\	-ce	4.ee-\
8E-\	.	.	.	.	.	.	.	.	.
!	!	!	!	!	!	!	!LO:TX:a:t=P:problem:fermata dopisana inną ręką	!	!
8E-\	.	.	.	.	4r	.	4r;	.	.
8E-\J	.	.	.	.	.	.	.	.	16dd\LL
.	.	.	.	.	.	.	.	.	16ee-\JJ
8D\L	.	.	.	.	2r	.	2r	.	8ff\L
8D\	.	.	.	.	.	.	.	.	8b-X\J
8D\	.	.	.	.	.	.	.	.	8a-X/L
8D\J	.	.	.	.	.	.	.	.	16g/L
.	.	.	.	.	.	.	.	.	16f/JJ
!	!	!LO:PB:g=original	!	!	!	!	!	!	!
=82	=82	=82	=82	=82	=82	=82	=82	=82	=82
8E-\L	.	4.ee-\	.	.	00r	.	00r	.	4.gg\
8E-\	.	.	.	.	.	.	.	.	.
8E-\	.	.	.	.	.	.	.	.	.
8E-\J	.	16dd\LL	.	.	.	.	.	.	16ff\LL
.	.	16ee-\JJ	.	.	.	.	.	.	16gg\JJ
!LO:SIC:s=8B-\L:v	!	!	!	!	!	!	!	!	!
!LO:TX:t=P:problem:mixed beam	!	!	!	!	!	!	!	!	!
8B\L	.	8ff\L	.	.	.	.	.	.	8aa-X\L
!LO:SIC:s=8BB-/:v	!	!	!	!	!	!	!	!	!
8BB/	.	16dd\L	.	.	.	.	.	.	16ff\L
.	.	16ee-\JJ	.	.	.	.	.	.	16gg\JJ
!LO:SIC:s=8BB-/:v	!	!	!	!	!	!	!	!	!
8BB/	.	8ff\L	.	.	.	.	.	.	8aa-\L
!LO:SIC:s=8BB-/J:v	!	!	!	!	!	!	!	!	!
8BB/J	.	16ee-\L	.	.	.	.	.	.	16gg\L
.	.	16dd\JJ	.	.	.	.	.	.	16ff\JJ
!LO:LB:g=original	!	!	!	!	!	!	!	!	!
!	!LO:PB:g=original	!	!	!	!	!	!	!	!
=83	=83	=83	=83	=83	=83	=83	=83	=83	=83
4E-\	8e-/L	8ee-\L	.	.	.	.	.	.	8gg\L
!	!	!	!	!	!	!	!	!	!LO:SIC:s=8bb-
.	8a-X/	8gg\	.	.	.	.	.	.	8bb\
!	!LO:SIC:s=8b-/:v	!	!	!	!	!	!	!	!LO:SIC:s=8bb-
4r	8b/	8gg\	.	.	.	.	.	.	8bb\
!	!LO:SIC:s=8B-/J:v	!	!	!	!	!	!	!	!
.	8B/J	8ff\J	.	.	.	.	.	.	8aa-X\J
2r	8e-/L	8ee-\L	.	.	.	.	.	.	8gg\L
!	!	!	!	!	!	!	!	!	!LO:SIC:s=8bb-
.	8a-X/	8gg\	.	.	.	.	.	.	8bb\
!	!LO:SIC:s=8b-/:v	!	!	!	!	!	!	!	!LO:SIC:s=8bb-
.	8b/	8gg\	.	.	.	.	.	.	8bb\
!	!LO:SIC:s=8B-/J:v	!	!	!	!	!	!	!	!
.	8B/J	8ff\J	.	.	.	.	.	.	8aa-\J
=84	=84	=84	=84	=84	=84	=84	=84	=84	=84
!LO:TX:t=P:problem:mixed beam	!	!	!	!	!	!	!	!	!
8E-\L	16ee-\LL	16gg\LL	.	.	.	.	.	.	4gg\
.	16ff\	16aa-X\	.	.	.	.	.	.	.
!LO:SIC:s=8A-\:v	!	!LO:SIC:s=16bb-\:v	!	!	!	!	!	!	!
8A\	16gg\	16bb\	.	.	.	.	.	.	.
.	16aa-X\JJ	16ccc\JJ	.	.	.	.	.	.	.
!LO:SIC:s=8B-\:v	!	!LO:SIC:s=16bb-\LL:v	!	!	!	!	!	!	!
8B\	16gg\LL	16bb\LL	.	.	.	.	.	.	4r
.	16ff\	16aa-X\	.	.	.	.	.	.	.
!LO:SIC:s=8BB-/J:v	!	!	!	!	!	!	!	!	!
8BB/J	16ee-\	16gg\	.	.	.	.	.	.	.
.	16dd\JJ	16ff\JJ	.	.	.	.	.	.	.
!LO:TX:t=P:problem:mixed beam	!	!	!	!	!	!	!	!	!
8E-\L	16ee-\LL	16gg\LL	.	.	.	.	.	.	2r
.	16ff\	16aa-X\	.	.	.	.	.	.	.
!LO:SIC:s=8A-\:v	!	!LO:SIC:s=16bb-\:v	!	!	!	!	!	!	!
8A\	16gg\	16bb\	.	.	.	.	.	.	.
.	16aa-\JJ	16ccc\JJ	.	.	.	.	.	.	.
!LO:SIC:s=8B-\:v	!	!LO:SIC:s=16bb-\LL:v	!	!	!	!	!	!	!
8B\	16gg\LL	16bb\LL	.	.	.	.	.	.	.
.	16ff\	16aa-X\	.	.	.	.	.	.	.
!LO:SIC:s=8BB-/J:v	!	!	!	!	!	!	!	!	!
8BB/J	16ee-\	16gg\	.	.	.	.	.	.	.
.	16dd\JJ	16ff\JJ	.	.	.	.	.	.	.
!	!	!LO:LB:g=original	!	!	!	!	!	!	!
=85	=85	=85	=85	=85	=85	=85	=85	=85	=85
!	!LO:TX:t=P:problem:mixed beam	!	!	!	!	!	!	!	!
4E-\	8ee-\L	8ee-\L	00r	.	.	.	.	.	8gg\L
!	!	!	!	!	!	!	!	!	!LO:SIC:s=8bb-:v
.	8a-X\	8gg\	.	.	.	.	.	.	8bb\
!	!LO:SIC:s=8b-\:v	!	!	!	!	!	!	!	!LO:SIC:s=8bb-:v
4r	8b\	8gg\	.	.	.	.	.	.	8bb\
!	!LO:SIC:s=8B-/J:v	!	!	!	!	!	!	!	!
.	8B/J	8ff\J	.	.	.	.	.	.	8aa-X\J
2r	8e-/L	8ee-\L	.	.	.	.	.	.	8gg\L
!	!	!	!	!	!	!	!	!	!LO:SIC:s=8bb-:v
.	8a-X/	8gg\	.	.	.	.	.	.	8bb\
!	!LO:SIC:s=8b-/:v	!	!	!	!	!	!	!	!LO:SIC:s=8bb-:v
.	8b/	8gg\	.	.	.	.	.	.	8bb\
!	!LO:SIC:s=8B-/J:v	!	!	!	!	!	!	!	!
.	8B/J	8ff\J	.	.	.	.	.	.	8aa-\J
!	!	!	!	!	!	!	!	!	!LO:LB:g=original
=86	=86	=86	=86	=86	=86	=86	=86	=86	=86
!LO:TX:t=P:problem:mixed beam	!	!	!	!	!	!	!	!	!
8E-\L	8e-/L	8ee-\L	.	.	00r	.	00r	.	8gg\L
!LO:SIC:s=8A-\:v	!	!	!	!	!	!	!	!	!
8A\	8cc/	16ff\L	.	.	.	.	.	.	16ff\L
.	.	16ee-\JJ	.	.	.	.	.	.	16ee-\JJ
!LO:SIC:s=8B-\:v	!	!	!	!	!	!	!	!	!
8B\	8.b-X/	8.dd\L	.	.	.	.	.	.	8.dd\L
!LO:SIC:s=8BB-/J:v	!	!	!	!	!	!	!	!	!
8BB/J	.	.	.	.	.	.	.	.	.
.	16b-/Jk	16dd\Jk	.	.	.	.	.	.	16dd\Jk
!	!LO:LB:g=original	!	!	!	!	!	!	!	!
8E-\L	4b-\	4ee-\	.	.	.	.	.	.	4ee-\
16E-\L	.	.	.	.	.	.	.	.	.
16F\JJ	.	.	.	.	.	.	.	.	.
8E-\L	4r	4r	.	.	.	.	.	.	4r
8D\J	.	.	.	.	.	.	.	.	.
=87	=87	=87	=87	=87	=87	=87	=87	=87	=87
8C/L	0r	1r	.	.	.	.	.	.	4.cc\
8C/	.	.	.	.	.	.	.	.	.
8C/	.	.	.	.	.	.	.	.	.
8C/J	.	.	.	.	.	.	.	.	16bn\LL
.	.	.	.	.	.	.	.	.	16cc\JJ
!	!	!	!	!	!	!	!	!	!LO:TX:t=P:problem:mixed beam
8Dn/L	.	.	.	.	.	.	.	.	8dd\L
8D/	.	.	.	.	.	.	.	.	8g/J
8D/	.	.	.	.	.	.	.	.	8f/L
8D/J	.	.	.	.	.	.	.	.	16e-/L
.	.	.	.	.	.	.	.	.	16d/JJ
=88	=88	=88	=88	=88	=88	=88	=88	=88	=88
8C/L	.	4.cc\	.	.	.	.	.	.	4.ee-\
8C/	.	.	.	.	.	.	.	.	.
8C/	.	.	.	.	.	.	.	.	.
8C/J	.	16bn\LL	.	.	.	.	.	.	16dd\LL
.	.	16cc\JJ	.	.	.	.	.	.	16ee-\JJ
!LO:TX:t=P:problem:mixed beam	!	!	!	!	!	!	!	!	!
8G\L	.	8dd\L	.	.	.	.	.	.	8ff\L
8GG/	.	16dd\L	.	.	.	.	.	.	16ff\L
.	.	16ee-\JJ	.	.	.	.	.	.	16gg\JJ
8GG/	.	8dd\L	.	.	.	.	.	.	8ff\L
8GG/J	.	16cc\L	.	.	.	.	.	.	16ee-\L
.	.	16bn\JJ	.	.	.	.	.	.	16dd\JJ
!LO:LB:g=original	!	!	!	!	!	!	!	!	!
=89	=89	=89	=89	=89	=89	=89	=89	=89	=89
4C/	8cc/L	8cc\L	00r	.	.	.	.	.	8ee-\L
.	8f#X/	8ee-\	.	.	.	.	.	.	8gg\
4r	8g/	8ee-\	.	.	.	.	.	.	8gg\
.	8G/J	8dd\J	.	.	.	.	.	.	8ff\J
2r	8cc/L	8cc\L	.	.	.	.	.	.	8ee-\L
.	8f#X/	8ee-\	.	.	.	.	.	.	8gg\
.	8g/	8ee-\	.	.	.	.	.	.	8gg\
.	8G/J	8dd\J	.	.	.	.	.	.	8ff\J
!	!	!LO:LB:g=original	!	!	!	!	!	!	!
=90	=90	=90	=90	=90	=90	=90	=90	=90	=90
!LO:TX:t=P:problem:mixed beam	!	!	!	!	!	!	!	!	!
8C\L	16cc\LL	16ee-\LL	.	.	0r	.	0r	.	4ee-\
.	16dd\	16ff\	.	.	.	.	.	.	.
8F#\	16ee-\	16gg\	.	.	.	.	.	.	.
!	!	!LO:SIC:s=16aa-\JJ:v	!	!	!	!	!	!	!
.	16ff\JJ	16aa\JJ	.	.	.	.	.	.	.
8G\	16ee-\LL	16gg\LL	.	.	.	.	.	.	4r
.	16dd\	16ff\	.	.	.	.	.	.	.
8GG/J	16cc\	16ee-\	.	.	.	.	.	.	.
.	16bn\JJ	16dd\JJ	.	.	.	.	.	.	.
!LO:TX:t=P:problem:mixed beam	!	!	!	!	!	!	!	!	!
8C\L	16cc\LL	16ee-\LL	.	.	.	.	.	.	2r
.	16dd\	16ff\	.	.	.	.	.	.	.
8F#X\	16ee-\	16gg\	.	.	.	.	.	.	.
!	!	!LO:SIC:s=16aa-\JJ:v	!	!	!	!	!	!	!
.	16ff\JJ	16aa\JJ	.	.	.	.	.	.	.
8G\	16ee-\LL	16gg\LL	.	.	.	.	.	.	.
.	16dd\	16ff\	.	.	.	.	.	.	.
8GG/J	16cc\	16ee-\	.	.	.	.	.	.	.
.	16bn\JJ	16dd\JJ	.	.	.	.	.	.	.
=91	=91	=91	=91	=91	=91	=91	=91	=91	=91
4C/	8cc/L	8cc\L	.	.	.	.	.	.	8ee-\L
.	8f#X/	8ee-\	.	.	.	.	.	.	8gg\
4r	8g/	8ee-\	.	.	.	.	.	.	8gg\
.	8G/J	8dd\J	.	.	.	.	.	.	8ff\J
2r	8cc/L	8cc\L	.	.	.	.	.	.	8ee-\L
.	8f#X/	8ee-\	.	.	.	.	.	.	8gg\
.	8g/	8ee-\	.	.	.	.	.	.	8gg\
.	8G/J	8dd\J	.	.	.	.	.	.	8ff\J
!	!LO:LB:g=original	!	!	!	!	!	!	!	!
=92	=92	=92	=92	=92	=92	=92	=92	=92	=92
!LO:TX:t=P:problem:mixed beam	!	!	!	!	!	!	!	!	!
8C\L	8cc/L	8ee-\L	.	.	2r	.	2r	.	8ee-\L
8Fn\	16bn/L	16dd\L	.	.	.	.	.	.	16dd\L
.	16an/JJ	16cc\JJ	.	.	.	.	.	.	16cc\JJ
!	!	!	!	!	!	!	!	!	!LO:LB:g=original
8G\	8.g/L	8.bn\L	.	.	.	.	.	.	8.bn\L
8GG/J	.	.	.	.	.	.	.	.	.
.	16g/Jk	16b\Jk	.	.	.	.	.	.	16b\Jk
8C/L	4g/	4cc\	.	.	4.ee-\	So-	4.gg\	So-	4cc\
8C/	.	.	.	.	.	.	.	.	.
8C/	4r	4r	.	.	.	.	.	.	4r
8GG/J	.	.	.	.	8bn\	-li	8dd\	-li	.
!	!	!	!	!	!	!	!LO:LB:g=original	!	!
=93	=93	=93	=93	=93	=93	=93	=93	=93	=93
!	!	!	!	!	!	!	!	!	!LO:TX:t=verte
4C/	1r	1r	00r	.	8cc\	De-	8ee-\	De-	1r
.	.	.	.	.	8cc\	-o	8cc\	-o	.
8r	.	.	.	.	8cc\	ad-	16cc\LL	ad-	.
.	.	.	.	.	.	.	16dd\JJ	.	.
!	!	!	!	!	!	!LO:SIC:l:s=hae:v	!	!	!
8C/	.	.	.	.	8cc\	-he-	8ee-\	-hae-	.
8GG/L	.	.	.	.	16b\LL	-re-	16dd\LL	-re-	.
.	.	.	.	.	16cc\JJ	.	16ee-\JJ	.	.
8AA/	.	.	.	.	8dd\	-re	8ff\	-re	.
!	!	!	!	!	!LO:LB:g=original	!	!	!	!
8BBn/	.	.	.	.	16dd\	ti-	16ff\	ti-	.
.	.	.	.	.	16dd\	-bi	16ff\	-bi	.
8GG/J	.	.	.	.	16ee-\	ti-	16gg\	ti-	.
.	.	.	.	.	16bn\	-bi	16dd\	-bi	.
!	!	!	!	!	!	!	!	!	!LO:PB:g=original
=94	=94	=94	=94	=94	=94	=94	=94	=94	=94
!	!	!	!	!	!	!	!	!	!LO:TX:a:t=P:problem:brak bemola e- przy kluczu
8C/L	4r	4r	.	.	8.cc\	bo-	8.ee-\	bo-	4r
8GG/	.	.	.	.	.	.	.	.	.
.	.	.	.	.	16bn\	-num	16dd\	-num	.
8C/J	8r	8r	.	.	4cc\	est	4cc\	est	8r
8r	8bn\	8dd\	.	.	.	.	.	.	8gg\
!	!	!LO:LB:g=original	!	!	!	!	!	!	!
4r	8cc\L	16ee-\LL	.	.	2r	.	2r	.	2ggM\
.	.	16dd\	.	.	.	.	.	.	.
.	8b\	16ee-\	.	.	.	.	.	.	.
.	.	16dd\JJ	.	.	.	.	.	.	.
8r	8cc\	8ee-\L	.	.	.	.	.	.	.
8GG/	8b\J	8dd\J	.	.	.	.	.	.	.
!LO:LB:g=original	!	!	!	!	!	!	!	!	!
=95	=95	=95	=95	=95	=95	=95	=95	=95	=95
8C/L	8cc\L	8ee-\L	.	.	0r	.	0r	.	2gg\
8GG/J	8b\J	8dd\J	.	.	.	.	.	.	.
4r	8r	8r	.	.	.	.	.	.	.
.	8bn\	8dd\	.	.	.	.	.	.	.
4r	8cc\L	8ee-\L	.	.	.	.	.	.	2gg\
.	8b\	8dd\	.	.	.	.	.	.	.
8r	8cc\	8ee-\	.	.	.	.	.	.	.
8GG/	8b\J	8dd\J	.	.	.	.	.	.	.
=96	=96	=96	=96	=96	=96	=96	=96	=96	=96
8C/L	8cc\L	8ee-\L	.	.	.	.	.	.	4gg\
16GG/L	8b\J	8dd\J	.	.	.	.	.	.	.
16AAn/JJ	.	.	.	.	.	.	.	.	.
8BBn/L	8r	8r	.	.	.	.	.	.	8r
8GG/J	8b\	8dd\	.	.	.	.	.	.	8dd\
!LO:TX:t=P:problem:mixed beam	!	!	!	!	!	!	!	!	!
8A-X\L	8cc\L	8ee-\L	.	.	.	.	.	.	8ee-\L
8F\	16bn\Jk	16dd\L	.	.	.	.	.	.	16dd\L
.	16an/	16cc\JJ	.	.	.	.	.	.	16cc\JJ
!	!LO:LB:g=original	!	!	!	!	!	!	!	!
8G\	8.g/L	8.bn\L	.	.	.	.	.	.	8.bnm\L
8GG/J	.	.	.	.	.	.	.	.	.
.	16g/Jk	16b\Jk	.	.	.	.	.	.	16b\Jk
!	!	!	!	!	!	!	!LO:LB:g=original	!	!
=97	=97	=97	=97	=97	=97	=97	=97	=97	=97
8C/L	4g/	4cc\	00r	.	4.ee-\	So-	4.gg\	So-	4cc\
8C/	.	.	.	.	.	.	.	.	.
8C/	4r	4r	.	.	.	.	.	.	4r
8GG/J	.	.	.	.	8bn\	-li	8dd\	-li	.
4C/	2r	2r	.	.	8cc\	De-	8ee-\	De-	2r
.	.	.	.	.	8cc\	-o	8b\	-o	.
8r	.	.	.	.	8cc\	ad-	16cc\LL	ad-	.
.	.	.	.	.	.	.	16dd\JJ	.	.
!	!	!	!	!	!	!LO:SIC:l:s=hae:v	!	!LO:SIC:l:s=hae:v	!
8C/	.	.	.	.	8cc\	-he-	8ee-\	-he-	.
=98	=98	=98	=98	=98	=98	=98	=98	=98	=98
8GG/L	1r	1r	.	.	16bn\LL	-re-	16dd\LL	-re-	00r
.	.	.	.	.	16cc\JJ	.	16ee-\JJ	.	.
8AAn/	.	.	.	.	8dd\	-re	8ff\	-re	.
!	!	!	!	!	!LO:LB:g=original	!	!	!	!
8BBn/	.	.	.	.	16dd\	ti-	16ff\	ti-	.
.	.	.	.	.	16dd\	-bi	16ff\	-bi	.
8GG/J	.	.	.	.	16ee-\	ti-	16gg\	ti-	.
.	.	.	.	.	16bn\	-bi	16dd\	-bi	.
8.C/L	.	.	.	.	8.cc\	bo-	8.ee-\	bo-	.
16GG/Jk	.	.	.	.	16bn\	-num	16dd\	-num	.
4C/	.	.	.	.	4cc\	est	4cc\	est	.
!	!	!LO:LB:g=original	!	!	!	!	!LO:LB:g=original	!	!
=99	=99	=99	=99	=99	=99	=99	=99	=99	=99
4G\	16r	16r	.	.	8bn\	hic	8dd\	Hic	.
.	16d/KL	16b\KL	.	.	.	.	.	.	.
.	8dt/J	8bt\J	.	.	8b\	est	8dd\	est	.
8r	16r	16r	.	.	8b\	ve-	8dd\	ve-	.
.	16d/KL	16b\KL	.	.	.	.	.	.	.
8G\	8dt/J	8bt\J	.	.	16an\LL	-rum	16cc\LL	-rum	.
.	.	.	.	.	16b\JJ	.	16dd\JJ	.	.
4C/	16r	16r	.	.	8.cc\	gau-	8.ee-\	gau-	.
.	16e-/KL	16cc\KL	.	.	.	.	.	.	.
.	8e-T/J	8ccT\J	.	.	.	.	.	.	.
.	.	.	.	.	16bn\	-di-	16dd\	-di-	.
8r	16r	16r	.	.	8cc\L	-um	8ee-\L	-um	.
.	16e-/KL	16cc\KL	.	.	.	.	.	.	.
8C/	8e-T/J	8ccT\J	.	.	16b\L	.	16dd\L	.	.
.	.	.	.	.	16a\JJ	.	16cc\JJ	.	.
!LO:LB:g=original	!	!	!	!	!LO:LB:g=original	!	!	!	!
=100	=100	=100	=100	=100	=100	=100	=100	=100	=100
4G\	16r	16r	.	.	8b\	hic	8dd\	Hic	.
.	16d/KL	8b\L	.	.	.	.	.	.	.
.	8dt/J	.	.	.	8b\	est	8dd\	est	.
.	.	16bt\Jk	.	.	.	.	.	.	.
8r	16r	16r	.	.	8b\	ho-	8dd\	ho-	.
.	16d/KL	16b\KL	.	.	.	.	.	.	.
!	!LO:N:vis=16	!	!	!	!	!	!	!	!
8G\	8dt/J	8bt\J	.	.	8b\	-nor	16cc\LL	-nor	.
.	.	.	.	.	.	.	16dd\JJ	.	.
4C/	16r	16r	.	.	8.cc\	men-	8.ee-\	men-	.
.	16e-/KL	16cc\KL	.	.	.	.	.	.	.
.	8e-T/J	8ccT\J	.	.	.	.	.	.	.
.	.	.	.	.	16b\	-ti-	16dd\	-ti-	.
8r	16r	16r	.	.	8cc\L	-um	8ee-\L	-um	.
.	16e-/KL	16cc\KL	.	.	.	.	.	.	.
8C/	8e-T/J	8ccT\J	.	.	16b\L	.	16dd\L	.	.
.	.	.	.	.	16a\JJ	.	16ee-\JJ	.	.
!	!	!	!	!	!	!	!LO:LB:g=original	!	!
=101	=101	=101	=101	=101	=101	=101	=101	=101	=101
4BB-X/	16r	16r	0r	.	8dd\	hic	8ff\	Hic	.
.	16d/KL	16f/KL	.	.	.	.	.	.	.
.	8dt/J	8fT/J	.	.	8dd\	te	8ff\	te	.
8r	16r	16r	.	.	8dd\	va-	8ff\	va-	.
.	16d/KL	16f/KL	.	.	.	.	.	.	.
8BB-/	8dt/J	8fT/J	.	.	8dd\	-let	8ff\	-let	.
!	!LO:LB:g=original	!	!	!	!	!	!	!	!
4E-\	16r	16r	.	.	16ee-\	So-	16gg\	So-	.
.	16e-/KL	16g/KL	.	.	16dd\	-lus	16ff\	-lus	.
.	8e-T/J	8gT/J	.	.	16cc\	sa-	16ee-\	Sa-	.
!	!	!	!	!	!	!LO:SIC:l:s=-ti-:v	!	!LO:SIC:l:s=-ti-:v	!
.	.	.	.	.	16dd\	-ci-	16ff\	-ci-	.
!	!	!	!	!	!LO:LB:g=original	!	!	!	!
8r	16r	16r	.	.	8ee-\	-a-	8gg\	-a-	.
.	16e-/KL	16g/KL	.	.	.	.	.	.	.
8E-\	8e-/J	8gT/J	.	.	8cc\	-re	8ee-\	-re	.
!	!	!LO:LB:g=original	!	!	!	!	!	!	!
=102	=102	=102	=102	=102	=102	=102	=102	=102	=102
4BB-X/	16r	16r	.	.	8dd\	Hic	8ff\	hic	00r
.	16d/KL	16f/KL	.	.	.	.	.	.	.
.	8dt/J	8f/J	.	.	8dd\	te	8ff\	te	.
8r	16r	16r	.	.	8dd\	pot-	8ff\	po-	.
.	16d/KL	16f/KL	.	.	.	.	.	.	.
8BB-/	8dt/J	8f/J	.	.	8dd\	-est	8ff\	-test	.
4E-\	16r	16r	.	.	16ee-\	ae-	16gg\	ae-	.
.	16e-/KL	16g/KL	.	.	16dd\	-ter-	16ff\	-ter-	.
!	!	!	!	!	!	!	!LO:LB:g=original	!	!
.	8e-T/J	8g/J	.	.	16cc\	-num	16ee-\	-num	.
.	.	.	.	.	16dd\	be-	16ff\	be-	.
8r	16r	16r	.	.	8ee-\	-a-	8gg\	-a-	.
.	16e-/KL	16g/KL	.	.	.	.	.	.	.
8E-\	8e-T/J	8g/J	.	.	8cc\	-re	8ee-\	-re	.
!	!	!	!LO:LB:g=original	!	!	!	!	!	!
=103	=103	=103	=103	=103	=103	=103	=103	=103	=103
!LO:SIC:s=4BB-/:v	!	!	!	!	!	!	!	!	!
4BB/	4d/	4f/	8r	.	8dd\L	in	8ff\L	In	.
.	.	.	8G\	in	8cc\J	.	8ee-\J	.	.
8r	4r	4r	8G\	il-	8dd\	il-	8ff\	il-	.
8GG/	.	.	16An\	-lo	16cc\	-lo	16ee-\	-lo	.
.	.	.	16Bn\	Se-	16bn\	se-	16dd\	se-	.
!	!	!	!	!	!LO:LB:g=original	!	!	!	!
8C\L	2r	2r	4.c\	-cu-	4.cc\	-cu-	4.ee-\	-cu-	.
8D\	.	.	.	.	.	.	.	.	.
8E-\	.	.	.	.	.	.	.	.	.
8C\J	.	.	8E-\	-re	8cc\	-re	8ee-\	-re	.
=104	=104	=104	=104	=104	=104	=104	=104	=104	=104
4F\	1r	1r	4F\	qvi-	4b\	qvi-	8dd\L	qvi-	.
.	.	.	.	.	.	.	8cc\J	.	.
!LO:TX:t=P:problem:mixed beam	!	!	!LO:TX:t=P:problem:mixed beam	!	!	!	!	!	!
8G\L	.	.	8G\L	-es-	4g\	-es-	4bn\	-es-	.
8GG/J	.	.	8GG/J	.	.	.	.	.	.
8C\L	.	.	4C/	-ce	4g\	-ce	4cc\	-ce	.
8D\J	.	.	.	.	.	.	.	.	.
8E-\L	.	.	4r	.	4r	.	4r	.	.
16D\L	.	.	.	.	.	.	.	.	.
16C\JJ	.	.	.	.	.	.	.	.	.
!LO:LB:g=original	!	!	!	!	!	!	!	!	!
=105	=105	=105	=105	=105	=105	=105	=105	=105	=105
4G\	16r	16r	00r	.	8bn\	hic	8dd\	Hic	.
.	16d/KL	16bn\KL	.	.	.	.	.	.	.
.	8dt/J	8bt\J	.	.	8b\	est	8dd\	est	.
!	!	!	!	!	!	!	!LO:LB:g=original	!	!
8r	16r	16r	.	.	8b\	ve-	8dd\	ve-	.
.	16d/KL	16b\KL	.	.	.	.	.	.	.
8G\	8dt/J	8bt\J	.	.	16an\LL	-rum	16cc\LL	-rum	.
.	.	.	.	.	16b\JJ	.	16dd\JJ	.	.
4C/	16r	16r	.	.	8.cc\	gau-	8.ee-\	gau-	.
.	16e-/KL	16cc\KL	.	.	.	.	.	.	.
.	8e-T/J	8ccT\J	.	.	.	.	.	.	.
.	.	.	.	.	16bn\	-di-	16dd\	-di-	.
8r	16r	16r	.	.	8cc\L	-um	8ee-\L	-um	.
.	16e-/KL	16cc\KL	.	.	.	.	.	.	.
8C/	8e-T/J	8ccT\J	.	.	16b\L	.	16dd\L	.	.
.	.	.	.	.	16a\JJ	.	16cc\JJ	.	.
!	!LO:LB:g=original	!	!	!	!	!	!	!	!
=106	=106	=106	=106	=106	=106	=106	=106	=106	=106
4G\	16r	16r	.	.	8b\	hic	8dd\	Hic	00r
.	16d/KL	16bn\KL	.	.	.	.	.	.	.
.	8dt/J	8b\J	.	.	8b\	est	8dd\	est	.
8r	16r	16r	.	.	8b\	ho-	8dd\	ho-	.
.	16d/KL	16b\KL	.	.	.	.	.	.	.
8G\	8dt/J	8b\J	.	.	8b\	-nor	16cc\LL	-nor	.
.	.	.	.	.	.	.	16dd\JJ	.	.
!	!	!LO:LB:g=original	!	!	!LO:LB:g=original	!	!	!	!
4C/	16r	16r	.	.	8.cc\	men-	8.ee-\	men-	.
.	16e-/KL	16cc\KL	.	.	.	.	.	.	.
.	8e-T/J	8ccT\J	.	.	.	.	.	.	.
.	.	.	.	.	16b\	-ti-	16dd\	-ti-	.
8r	16r	16r	.	.	8cc\L	-um	8ee-\L	-um	.
.	16e-/KL	16cc\KL	.	.	.	.	.	.	.
8C/	8e-T/J	8ccT\J	.	.	16b\L	.	16dd\L	.	.
.	.	.	.	.	16a\JJ	.	16ee-\JJ	.	.
=107	=107	=107	=107	=107	=107	=107	=107	=107	=107
!	!	!	!	!	!	!LO:SIC:l:s=Hic:v	!	!	!
4BB-X/	16r	16r	.	.	8dd\	Hi	8ff\	Hic	.
.	16d/KL	8f/L	.	.	.	.	.	.	.
.	8dt/J	.	.	.	8dd\	te	8ff\	te	.
.	.	16f/Jk	.	.	.	.	.	.	.
8r	16r	16r	.	.	8dd\	va-	8ff\	va-	.
.	16d/KL	8f/L	.	.	.	.	.	.	.
8BB-/	8dt/J	.	.	.	8dd\	-let	8ff\	-let	.
.	.	16f/Jk	.	.	.	.	.	.	.
!	!	!	!	!	!	!	!LO:LB:g=original	!	!
4E-\	16r	16r	.	.	16ee-\	So-	16gg\	So-	.
.	16e-/KL	16g/KL	.	.	16dd\	-lus	16ff\	-lus	.
.	8e-T/J	8g/J	.	.	16cc\	Sa-	16ee-\	Sa-	.
!	!	!	!	!	!	!LO:SIC:l:s=-ti-:v	!	!LO:SIC:l:s=-ti-:v	!
.	.	.	.	.	16dd\	-ci-	16ff\	-ci-	.
8r	16r	16r	.	.	8ee-\	-a-	8gg\	-a-	.
.	16e-/KL	16g/KL	.	.	.	.	.	.	.
8E-\	8e-T/J	8g/J	.	.	8cc\	-re	8ee-\	-re	.
=108	=108	=108	=108	=108	=108	=108	=108	=108	=108
4BB-X/	16r	16r	.	.	8dd\	hic	8ff\	hic	.
.	16d/KL	16f/KL	.	.	.	.	.	.	.
.	8dt/J	8f/J	.	.	8dd\	te	8ff\	te	.
8r	16r	16r	.	.	8dd\	po-	8ff\	po-	.
.	16d/KL	16f/KL	.	.	.	.	.	.	.
!	!	!	!	!	!LO:LB:g=original	!	!	!	!
8BB-/	8dt/J	8f/J	.	.	8dd\	-test	8ff\	-test	.
4E-\	16r	16r	.	.	16ee-\	ae-	16gg\	ae-	.
.	16e-/KL	16g/KL	.	.	16dd\	-ter-	16ff\	-ter-	.
.	8e-T/J	8g/J	.	.	16cc\	-num	16ee-\	-num	.
.	.	.	.	.	16dd\	be-	16ff\	be-	.
8r	16r	16r	.	.	8ee-\	-a-	8gg\	-a-	.
.	16e-/KL	16g/KL	.	.	.	.	.	.	.
8E-\	8e-T/J	8g/J	.	.	8cc\	-re	8ee-\	-re	.
!	!LO:LB:g=original	!	!	!	!	!	!LO:LB:g=original	!	!
=109	=109	=109	=109	=109	=109	=109	=109	=109	=109
!LO:SIC:s=4BB-/:v	!	!	!	!	!	!	!	!	!
4BB/	4d/	4f/	8r	.	8dd\L	in	8ff\L	In	.
.	.	.	8G\	in	8cc\J	.	8ee-\J	.	.
8r	4r	4r	8G\	il-	8dd\	il-	8ff\	il-	.
8GG/	.	.	16An\	-lo	16cc\	-lo	16dd\	-lo	.
.	.	.	16Bn\	se-	16bn\	se-	16dd\	se-	.
8C\L	2r	2r	4.c\	-cu-	4.cc\	-cu-	4.ee-\	-cu-	.
8D\	.	.	.	.	.	.	.	.	.
8E-\	.	.	.	.	.	.	.	.	.
8C\J	.	.	8E-\	-re	8cc\	-re	8ee-\	-re	.
!LO:LB:g=original	!	!	!LO:LB:g=original	!	!	!	!	!	!
=110	=110	=110	=110	=110	=110	=110	=110	=110	=110
4F\	0r	0r	4F\	qvi-	4b\	qvi-	8dd\L	qvi-	0r
.	.	.	.	.	.	.	8cc\J	.	.
!LO:TX:t=P:problem:mixed beam	!	!	!LO:TX:t=P:problem:mixed beam	!	!	!	!	!	!
8G\L	.	.	8G\L	-es-	4g\	-es-	4bn\	-es-	.
8GG/J	.	.	8GG/J	.	.	.	.	.	.
8C\L	.	.	4C/	-ce	4g\	-ce	4cc\	-ce	.
8D\J	.	.	.	.	.	.	.	.	.
8E-\L	.	.	4r	.	4r	.	4r	.	.
16D\L	.	.	.	.	.	.	.	.	.
16C\JJ	.	.	.	.	.	.	.	.	.
!	!	!	!	!	!LO:LB:g=original	!	!	!	!
=111	=111	=111	=111	=111	=111	=111	=111	=111	=111
4F#X\	.	.	8F#X\	Hic	8cc\	hic	8ee-\	Hic	.
.	.	.	8F#\	te	8cc\	te	8ee-\	te	.
8r	.	.	8F#\	va-	8cc\	va-	8ee-\	va-	.
!	!	!	!	!LO:SIC:l:s=-let:v	!	!	!	!	!
8F#\	.	.	8F#\	-le	8cc\	-let	8ee-\	-let	.
4G\	.	.	8G\	So-	8bn\	So-	8dd\	So-	.
.	.	.	8An\	-lus	8cc\	-lus	8ee-\	-lus	.
!	!	!	!	!	!	!	!LO:LB:g=original	!	!
8r	.	.	8Bn\	Sa-	8dd\	Sa-	8ff\	Sa-	.
!	!	!	!	!LO:SIC:l:s=-ti-:v	!	!LO:SIC:l:s=-ti-:v	!	!	!
8G\	.	.	8G\	-ci-	16cc\LL	-ci-	16ee-\LL	-ti-	.
.	.	.	.	.	16bn\JJ	.	16dd\JJ	.	.
!	!	!LO:LB:g=original	!	!	!	!	!	!	!
=112	=112	=112	=112	=112	=112	=112	=112	=112	=112
8c\L	8r	8r	8c\	-a-	8cc\	-a-	8ee-\	-a-	8r
!	!	!	!	!	!	!	!	!	!LO:TX:t=P:problem:nadliczbowa 8dd
!	!	!	!	!	!	!	!	!	!LO:N:vis=8
8G\J	8bn\L	8dd\L	8G\	-re	8bn\	-re	8dd\	-re	16dd\LL
!	!	!	!	!	!	!	!	!	!LO:N:vis=8
.	.	.	.	.	.	.	.	.	16dd\J
4r	8b\	8dd\	4r	.	4r	.	4r	.	8dd\
.	8b\J	8dd\J	.	.	.	.	.	.	8dd\J
!	!	!	!	!	!	!LO:SIC:l:s=hic:v	!	!	!
4F#X\	4cc\	4ee-\	8F#X\	Hic	8cc\	hi	8ee-\	hic	4ee-\
.	.	.	8F#\	te	8cc\	te	8ee-\	te	.
8r	4r	4r	8F#\	po-	8cc\	po-	8ee-\	po-	4r
8F#\	.	.	8F#\	-test	8cc\	-test	8ee-\	-test	.
=113	=113	=113	=113	=113	=113	=113	=113	=113	=113
!	!	!	!	!LO:SIC:l:s=ae-:v	!	!LO:SIC:l:s=ae:v	!	!	!
4G\	2r	2r	8G\	e-	8b\	e-	8dd\	ae-	2r
.	.	.	8An\	-ter-	8cc\	-ter-	8ee-\	-ter-	.
!	!	!	!LO:LB:g=original	!	!LO:LB:g=original	!	!	!	!
8r	.	.	8Bn\	-num	8dd\	-num	8ff\	-num	.
8G\	.	.	8G\	be-	16cc\LL	be-	16ee-\LL	be-	.
.	.	.	.	.	16bn\JJ	.	16dd\JJ	.	.
8c\L	8r	8r	8c\	-a-	8cc\	-a-	8ee-\	-a-	8r
8G\J	8bn\L	8dd\L	8G\	-re	8b\	-re	8dd\	-re	8dd\L
4r	8b\	8dd\	4r	.	4r	.	4r	.	8dd\
.	8b\J	8dd\J	.	.	.	.	.	.	8dd\J
!	!	!	!	!	!	!	!LO:LB:g=original	!	!
=114	=114	=114	=114	=114	=114	=114	=114	=114	=114
*	*	*	*	*	*2\right	*	*2\right	*	*
8C/L	4cc\	4ee-\	1r	.	2ee-\	In	2gg\	In	4ee-\
8D/	.	.	.	.	.	.	.	.	.
8E-/	4r	4r	.	.	.	.	.	.	4r
8C/J	.	.	.	.	.	.	.	.	.
8BB-X/L	2r	2r	.	.	2dd\	il-	2ffT\	il-	2r
8C/J	.	.	.	.	.	.	.	.	.
!LO:LB:g=original	!	!	!	!	!	!	!	!	!
8D/L	.	.	.	.	.	.	.	.	.
8BB-/J	.	.	.	.	.	.	.	.	.
=115	=115	=115	=115	=115	=115	=115	=115	=115	=115
!	!	!	!	!	!	!	!	!	!LO:TX:a:t=P:problem:fermata nie wyświetla się
8C\L	0r	0r	2r	.	2cc\	-lo	2ee-T\	-lo	0r;
8D\	.	.	.	.	.	.	.	.	.
8E-\	.	.	.	.	.	.	.	.	.
8C\J	.	.	.	.	.	.	.	.	.
8G\L	.	.	8r	.	2bn\	Se-	2ddt\	Se-	.
8An\	.	.	8G\	In	.	.	.	.	.
8Bn\	.	.	8An\	il-	.	.	.	.	.
8G\J	.	.	8Bn\	-lo	.	.	.	.	.
=116	=116	=116	=116	=116	=116	=116	=116	=116	=116
4c\	.	.	8c\L	Se-	8cc\L	-cu-	8ee-\L	-cu-	.
.	.	.	8B\	.	8b\	.	8dd\	.	.
8r	.	.	8c\	.	8cc\	.	8ee-\	.	.
8G\	.	.	8B\J	.	8b\J	.	8dd\J	.	.
4c\	.	.	8c\L	-cu-	8cc\L	.	8ee-\L	.	.
.	.	.	8B\	.	8b\	.	8dd\	.	.
8r	.	.	8c\	.	8cc\	.	8ee-\	.	.
8G\	.	.	8B\J	.	8b\J	.	8dd\J	.	.
=117	=117	=117	=117	=117	=117	=117	=117	=117	=117
!LO:TX:t=P:problem:mixed beam	!	!	!	!	!	!	!	!	!
8c\L	1r;	1r;	8c\	.	8cc\	.	8ee-\	.	1r
8F\	.	.	16E-\	-re	16bn\	-re	16dd\	-re	.
.	.	.	16F\	qvi-	16b\	qvi-	16cc\	qvi-	.
!	!	!	!LO:LB:g=original	!	!LO:LB:g=original	!	!	!	!
!	!	!	!LO:TX:t=P:problem:mixed beam	!	!	!	!	!	!
8G\	.	.	8G\L	-es-	4b\	-es-	4dd\	-es-	.
8GG/J	.	.	8GG/J	.	.	.	.	.	.
4C/	.	.	8C/	-ce.	8cc\	-ce	8cc\	-ce	.
.	.	.	8r	.	8cc\	qvi-	8ee-;\	qvi-	.
4G;\	.	.	4r;	.	4bn;\	-es-	4dd\	-es-	.
!	!	!	!	!	!	!	!	!	!LO:LB:g=original
=118	=118	=118	=118	=118	=118	=118	=118	=118	=118
!LO:TX:t=P:problem:mixed beam	!	!	!	!	!	!	!	!	!
8C\L	8c/L	8c/L	00r	.	4cc\	-ce	4cc\	-ce	8cc\L
8F\	8f/	8f/	.	.	.	.	.	.	16dd\L
.	.	.	.	.	.	.	.	.	16ee-\JJ
8G\	8g/	8g/	.	.	4r	.	4r	.	8dd\L
8GG/J	8G/J	8G/J	.	.	.	.	.	.	16cc\L
.	.	.	.	.	.	.	.	.	16bn\JJ
8C\L	8c/L	8c/L	.	.	2r	.	2r	.	4cc\
16G\L	16g/L	16g/L	.	.	.	.	.	.	.
16A-X\JJ	16a-X/JJ	16a-X/JJ	.	.	.	.	.	.	.
!	!LO:LB:g=original	!	!	!	!	!	!	!	!
16G\LL	16g/LL	16g/LL	.	.	.	.	.	.	4r
16F\	16f/	16f/	.	.	.	.	.	.	.
16E-\	16e-/	16e-/	.	.	.	.	.	.	.
16D\JJ	16d/JJ	16d/JJ	.	.	.	.	.	.	.
!LO:LB:g=original	!	!	!	!	!	!	!LO:LB:g=original	!	!
=119	=119	=119	=119	=119	=119	=119	=119	=119	=119
!LO:TX:t=P:problem:mixed beam	!	!	!	!	!	!	!	!	!
8E-\L	8e-/L	8e-/L	.	.	00r	.	00r	.	8ee-\L
8A-X\	8a-X/	8a-X/	.	.	.	.	.	.	16ff\L
.	.	.	.	.	.	.	.	.	16gg\JJ
!LO:SIC:s=8B-\:v	!LO:SIC:s=8b-	!LO:SIC:s=8b-/:v	!	!	!	!	!	!	!
8B\	8b/	8b/	.	.	.	.	.	.	8ff\L
!LO:SIC:s=8BB-/J:v	!LO:SIC:s=8B-/J:v	!LO:SIC:s=8B-/J:v	!	!	!	!	!	!	!
8BB/J	8B/J	8B/J	.	.	.	.	.	.	16ee-\L
.	.	.	.	.	.	.	.	.	16dd\JJ
!	!	!LO:LB:g=original	!	!	!	!	!	!	!
8E-\L	8e-/L	8e-/L	.	.	.	.	.	.	4ee-\
16E-\L	16e-/L	16e-/L	.	.	.	.	.	.	.
16F\JJ	16f/JJ	16f/JJ	.	.	.	.	.	.	.
16E-\LL	16e-/LL	16e-/LL	.	.	.	.	.	.	4r
16D\	16d/	16d/	.	.	.	.	.	.	.
16C\	16c/	16c/	.	.	.	.	.	.	.
16BBn\JJ	16Bn/JJ	16Bn/JJ	.	.	.	.	.	.	.
=120	=120	=120	=120	=120	=120	=120	=120	=120	=120
8C/L	8c/L	8c/L	.	.	.	.	.	.	16cc\LL
.	.	.	.	.	.	.	.	.	16g\J
!	!	!	!	!	!	!	!	!	!LO:N:vis=16
8r	8rg	8rg	.	.	.	.	.	.	8gW\J
8C/J	8c/J	8c/J	.	.	.	.	.	.	16cc\LL
.	.	.	.	.	.	.	.	.	16g\J
8r	8r	8r	.	.	.	.	.	.	8gM\J
8G\L	8Bn/L	8Bn/L	.	.	.	.	.	.	16dd\LL
.	.	.	.	.	.	.	.	.	16g\J
8r	8rg	8rg	.	.	.	.	.	.	8gM\J
8G\J	8B/J	8B/J	.	.	.	.	.	.	16dd\LL
.	.	.	.	.	.	.	.	.	16g\J
8r	8r	8r	.	.	.	.	.	.	8gM\J
=121	=121	=121	=121	=121	=121	=121	=121	=121	=121
8C/L	8c/L	8c/L	.	.	.	.	.	.	8ee-\L
8C/	8c/	8e-/	.	.	.	.	.	.	16gg\L
.	.	.	.	.	.	.	.	.	16aa-X\JJ
8C/	8c/	8e-/	.	.	.	.	.	.	8gg\L
8C/J	8c/J	8e-/J	.	.	.	.	.	.	16ff\L
.	.	.	.	.	.	.	.	.	16ee-\JJ
!LO:TX:t=P:problem:mixed beam	!	!	!	!	!	!	!	!	!
8G\L	8B/L	8d/L	.	.	.	.	.	.	8dd\L
8GG/	8B/	8d/	.	.	.	.	.	.	16ff\L
.	.	.	.	.	.	.	.	.	16gg\JJ
8GG/	8B/	8d/	.	.	.	.	.	.	8ff\L
8GG/J	8B/J	8d/J	.	.	.	.	.	.	16ee-\L
.	.	.	.	.	.	.	.	.	16dd\JJ
=122	=122	=122	=122	=122	=122	=122	=122	=122	=122
8c\L	8cc\L	8cc\L	00r	.	.	.	.	.	4cc\
8G\J	8g\J	8g\J	.	.	.	.	.	.	.
8G\L	8g\L	8g\L	.	.	.	.	.	.	4r
16An\L	16an\L	16an\L	.	.	.	.	.	.	.
16Bn\JJ	16bn\JJ	16bn\JJ	.	.	.	.	.	.	.
!	!LO:LB:g=original	!	!	!	!	!	!	!	!
8c\L	8cc\L	8cc\L	.	.	.	.	.	.	2r
8G\J	8g\J	8g\J	.	.	.	.	.	.	.
8G\L	8g\L	8g\L	.	.	.	.	.	.	.
16An\L	16an\L	16an\L	.	.	.	.	.	.	.
16Bn\JJ	16bn\JJ	16bn\JJ	.	.	.	.	.	.	.
!LO:LB:g=original	!	!	!	!	!	!	!	!	!
=123	=123	=123	=123	=123	=123	=123	=123	=123	=123
!LO:TX:t=P:problem:mixed beam	!LO:TX:t=P:problem:mixed beam	!	!	!	!	!	!	!	!
8c\L	8cc\L	8cc/L	.	.	00r	.	00r	.	8ee-\L
8C/	8e-/	8e-/	.	.	.	.	.	.	16gg\L
.	.	.	.	.	.	.	.	.	16aa-X\JJ
8C/	8e-/	8e-/	.	.	.	.	.	.	8gg\L
8C/J	8e-/J	8e-/J	.	.	.	.	.	.	16ff\L
.	.	.	.	.	.	.	.	.	16ee-\JJ
8BB-X/L	8B-X/L	8d/L	.	.	.	.	.	.	8dd\L
8BB-/	8B-/	8d/	.	.	.	.	.	.	16ff\L
.	.	.	.	.	.	.	.	.	16gg\JJ
!	!	!	!	!	!	!	!	!	!LO:LB:g=original
8BB-/	8B-/	8d/	.	.	.	.	.	.	8ff\L
8BB-/J	8B-/J	8d/J	.	.	.	.	.	.	16ee-\L
!	!	!	!	!	!	!	!	!	!LO:TX:t=P:problem:brak kreski taktowej
.	.	.	.	.	.	.	.	.	16dd\JJ
!	!	!LO:LB:g=original	!	!	!	!	!	!	!
=124	=124	=124	=124	=124	=124	=124	=124	=124	=124-
!LO:TX:t=P:problem:mixed beam	!	!	!	!	!	!	!	!	!
8C/L	8c/L	8c/L	.	.	.	.	.	.	8cc\L
8C/	8c/	8c/	.	.	.	.	.	.	16ee-\L
.	.	.	.	.	.	.	.	.	16ff\JJ
8A-X\	8a-X/	8a-X/	.	.	.	.	.	.	8ee-\L
8A-\J	8a-/J	8a-/J	.	.	.	.	.	.	16dd\L
.	.	.	.	.	.	.	.	.	16cc\JJ
8G\L	8g/L	8g/L	.	.	.	.	.	.	16bn\LL
.	.	.	.	.	.	.	.	.	16cc\
8An\	8an/	8an/	.	.	.	.	.	.	16dd\
.	.	.	.	.	.	.	.	.	16b\JJ
8Bn\	8bn/	8bn/	.	.	.	.	.	.	4g/
8G\J	8g/J	8g/J	.	.	.	.	.	.	.
=125	=125	=125	=125	=125	=125	=125	=125	=125	=125
8G\L	16r	16r	.	.	.	.	.	.	8g\L
.	16d/KL	16b\KL	.	.	.	.	.	.	.
8G\	8dt/J	8bt\J	.	.	.	.	.	.	16bn\L
.	.	.	.	.	.	.	.	.	16cc\JJ
8G\	16r	16r	.	.	.	.	.	.	16dd\LL
.	16d/KL	16b\KL	.	.	.	.	.	.	16g\J
8G\J	8dt/J	8bt\J	.	.	.	.	.	.	8gM\J
8G\L	16r	16r	.	.	.	.	.	.	8g\L
.	16e-/KL	16cc\KL	.	.	.	.	.	.	.
8G\	8e-T/J	8ccT\J	.	.	.	.	.	.	16cc\L
.	.	.	.	.	.	.	.	.	16dd\JJ
!	!	!	!	!	!	!	!	!	!LO:TX:t=P:problem:mixed beam
8G\	16r	16r	.	.	.	.	.	.	16ee-\LL
.	16e-/KL	16cc\KL	.	.	.	.	.	.	16g/J
8G\J	8e-T/J	8ccT\J	.	.	.	.	.	.	8g/J
!	!LO:LB:g=original	!	!	!	!	!	!	!	!
=126	=126	=126	=126	=126	=126	=126	=126	=126	=126
8G\L	16r	16r	00r	.	.	.	.	.	8g\L
.	16f/KL	16dd\KL	.	.	.	.	.	.	.
8G\	8fT/J	8dd\J	.	.	.	.	.	.	16dd\L
.	.	.	.	.	.	.	.	.	16ee-\JJ
!	!	!	!	!	!	!	!	!	!LO:TX:t=P:problem:mixed beam
8G\	16r	16r	.	.	.	.	.	.	16ff\LL
.	16f/KL	16dd\KL	.	.	.	.	.	.	16g/J
8G\J	8fT/J	8ddt\J	.	.	.	.	.	.	8gM/J
2r	2r	2r	.	.	.	.	.	.	4aa-X\
.	.	.	.	.	.	.	.	.	8ryy
.	.	.	.	.	.	.	.	.	8gg\
=127	=127	=127	=127	=127	=127	=127	=127	=127	=127
2r	2r	2r	.	.	00r	.	00r	.	2ff#X\
4r	4r	4r	.	.	.	.	.	.	8gg\L
.	.	.	.	.	.	.	.	.	8dd\
8r	8r	8r	.	.	.	.	.	.	8ee-\
8G\	8g/	8g/	.	.	.	.	.	.	8bn\J
=128	=128	=128	=128	=128	=128	=128	=128	=128	=128
4c\	4cc\	4cc\	.	.	.	.	.	.	16gg\LL
.	.	.	.	.	.	.	.	.	16ff#X\
.	.	.	.	.	.	.	.	.	16gg\
.	.	.	.	.	.	.	.	.	16dd\JJ
!LO:LB:g=original	!	!	!	!	!	!	!	!	!
8r	8r	8r	.	.	.	.	.	.	8ee-\L
8G\	8g/	8g/	.	.	.	.	.	.	8bn\J
!	!	!LO:LB:g=original	!	!	!	!	!	!	!
!LO:TX:t=P:problem:mixed beam	!	!	!	!	!	!	!	!	!
8c\L	16e-/LL	16cc\LL	.	.	.	.	.	.	4cc\
.	16e-/	16cc\	.	.	.	.	.	.	.
8C/	16e-/	16cc\	.	.	.	.	.	.	.
.	16e-/JJ	16cc\JJ	.	.	.	.	.	.	.
8C/	16e-/LL	16cc\LL	.	.	.	.	.	.	8r
.	16e-/	16cc\	.	.	.	.	.	.	.
8C/J	16e-/	16cc\	.	.	.	.	.	.	16cc\LL
.	16e-/JJ	16cc\JJ	.	.	.	.	.	.	16dd\JJ
!	!	!	!	!	!	!	!	!	!LO:LB:g=original
=129	=129	=129	=129	=129	=129	=129	=129	=129	=129
8F#X\L	16cc\LL	16ee-\LL	.	.	.	.	.	.	4ee-\
.	16cc\	16ee-\	.	.	.	.	.	.	.
8F#\	16cc\	16ee-\	.	.	.	.	.	.	.
.	16cc\JJ	16ee-\JJ	.	.	.	.	.	.	.
8F#\	16cc\LL	16ee-\LL	.	.	.	.	.	.	8r
.	16cc\	16ee-\	.	.	.	.	.	.	.
8F#\J	16cc\	16ee-\	.	.	.	.	.	.	8ee-\
.	16cc\JJ	16ee-\JJ	.	.	.	.	.	.	.
4G\	8bn\L	8dd\L	.	.	.	.	.	.	8dd\L
.	8ee-\	8gg\	.	.	.	.	.	.	8gg\
4r	8g\	8bn\	.	.	.	.	.	.	8bn\
.	8an\J	8cc\J	.	.	.	.	.	.	8cc\J
!	!LO:LB:g=original	!	!	!	!	!	!	!	!
=130	=130	=130	=130	=130	=130	=130	=130	=130	=130
8r	16bn\LL	16dd\LL	1r	.	.	.	.	.	16dd\LL
.	16cc\JJ	16ee-\JJ	.	.	.	.	.	.	16ee-\JJ
16G\LL	4dd\	4ff\	.	.	.	.	.	.	4ff\
16An\JJ	.	.	.	.	.	.	.	.	.
8Bn\L	.	.	.	.	.	.	.	.	.
!	!	!LO:SIC:s=24aa-\LL:v	!	!	!	!	!	!	!
8G\J	24ff\LL	24aa\LL	.	.	.	.	.	.	24aa-X\LL
.	24ee-\	24gg\	.	.	.	.	.	.	24gg\
.	24dd\JJ	24ff\JJ	.	.	.	.	.	.	24ff\JJ
!LO:TX:t=P:problem:mixed beam	!	!	!	!	!	!	!	!	!
8c\L	8cc\L	8ee-\L	.	.	.	.	.	.	8ee-\L
8F\	16b\L	16dd\L	.	.	.	.	.	.	16dd\L
.	16a-X\JJ	16cc\JJ	.	.	.	.	.	.	16cc\JJ
8G\	8.g/L	8.b\L	.	.	.	.	.	.	8.bn\L
8GG/J	.	.	.	.	.	.	.	.	.
.	16f/Jk	16b\Jk	.	.	.	.	.	.	16b\Jk
=131	=131	=131	=131	=131	=131	=131	=131	=131	=131
!	!	!	!	!	!	!	!LO:TX:a:t=P:problem:fermata nad kreską taktową; po wpisaniu fermaty kreski taktowe znikają	!	!
4C/	4en/	4cc\	1ryy	.	1rdd	.	1rdd	.	4cc\
4r	4r	4r	.	.	.	.	.	.	4r
!LO:TX:a:t=P:problem:nad kreską taktową fermata, która się nie wyświetla	!LO:TX:a:t=P:problem:nad kreską taktową fermata, która się nie wyświetla	!LO:TX:a:t=P:problem:nad kreską taktową fermata, która się nie wyświetla	!	!	!	!	!	!	!
2r	2r	2r	.	.	.	.	.	.	2r
==;	==;	==;	==	==	==	==	==;	==	==
*-	*-	*-	*-	*-	*-	*-	*-	*-	*-
!!!system-decoration: s1[(s2,s3,s4)][(s5,s6)]s7
!!!ENC: Kamil Watkowski
!!!END: 2020-12-10
!!!ENC: Zofia Niedbalska
!!!END: 2021-01-28
